<?xml version="1.0" encoding="UTF-8"?>
<map version="1.10" tiledversion="1.11.2" orientation="orthogonal" renderorder="right-down" width="41" height="30" tilewidth="32" tileheight="32" infinite="0" nextlayerid="22" nextobjectid="140">
 <tileset firstgid="1" name="fondomapa1" tilewidth="32" tileheight="32" tilecount="736" columns="32">
  <image source="../textures/fondomapa1.png" width="1024" height="765"/>
 </tileset>
 <tileset firstgid="737" name="lava" tilewidth="32" tileheight="32" tilecount="1024" columns="32">
  <image source="../textures/lava.png" width="1024" height="1024"/>
 </tileset>
 <tileset firstgid="1761" name="pared3" tilewidth="32" tileheight="32" spacing="2" margin="2" tilecount="49" columns="7">
  <image source="../textures/pared3.png" width="256" height="256"/>
 </tileset>
 <tileset firstgid="1810" name="pared" tilewidth="32" tileheight="32" spacing="2" margin="2" tilecount="49" columns="7">
  <image source="../textures/pared.png" width="256" height="256"/>
 </tileset>
 <tileset firstgid="1859" name="Dibujitoo" tilewidth="32" tileheight="32" spacing="2" margin="2" tilecount="49" columns="7">
  <image source="../textures/dibujito.png" width="256" height="256"/>
 </tileset>
 <tileset firstgid="1908" name="mesita" tilewidth="32" tileheight="32" spacing="2" margin="2" tilecount="900" columns="30">
  <image source="../textures/mesita.png" width="1024" height="1024"/>
 </tileset>
 <tileset firstgid="2808" name="Mesa_Holografica_mas_pequena" tilewidth="32" tileheight="32" spacing="2" margin="2" tilecount="900" columns="30">
  <image source="../textures/Mesa_Holografica_mas_pequena.png" width="1024" height="1024"/>
 </tileset>
 <tileset firstgid="3708" name="planeta" tilewidth="32" tileheight="32" spacing="2" margin="2" tilecount="49" columns="7">
  <image source="../textures/planeta.png" width="256" height="256"/>
 </tileset>
 <tileset firstgid="3757" name="navecita6" tilewidth="32" tileheight="32" tilecount="64" columns="8">
  <image source="../textures/navecita6.png" width="256" height="256"/>
 </tileset>
 <tileset firstgid="3821" name="Mesa_de_camaras2" tilewidth="32" tileheight="32" spacing="2" margin="2" tilecount="475" columns="19">
  <image source="../textures/Mesa_de_camaras2.png" width="677" height="871"/>
 </tileset>
 <tileset firstgid="4296" name="plataforma1" tilewidth="32" tileheight="32" spacing="2" margin="2" tilecount="49" columns="7">
  <image source="../textures/plataforma1.png" width="256" height="256"/>
 </tileset>
 <tileset firstgid="4345" name="mesaposiones3" tilewidth="32" tileheight="32" spacing="2" margin="2" tilecount="49" columns="7">
  <image source="../textures/mesaposiones3.png" width="256" height="256"/>
 </tileset>
 <tileset firstgid="4394" name="mesa" tilewidth="32" tileheight="32" spacing="2" margin="2" tilecount="49" columns="7">
  <image source="../textures/mesa.png" width="256" height="256"/>
 </tileset>
 <tileset firstgid="4443" name="Mesas_del_limpro1" tilewidth="32" tileheight="32" spacing="2" margin="2" tilecount="324" columns="17">
  <image source="../textures/Mesas_del_limpro1.png" width="590" height="590"/>
 </tileset>
 <tileset firstgid="4767" name="Mesa_de_la_profe_del_limpro2" tilewidth="32" tileheight="32" spacing="2" margin="2" tilecount="324" columns="17">
  <image source="../textures/Mesa_de_la_profe_del_limpro2.png" width="590" height="590"/>
 </tileset>
 <tileset firstgid="5091" name="Tileset" tilewidth="32" tileheight="32" tilecount="35" columns="7">
  <image source="../textures/suelo.png" width="240" height="176"/>
 </tileset>
 <tileset firstgid="5126" name="Reactor_horizontal1" tilewidth="32" tileheight="32" spacing="2" margin="2" tilecount="304" columns="15">
  <image source="../textures/Reactor_horizontal1.png" width="539" height="617"/>
 </tileset>
 <tileset firstgid="5430" name="Reactor_vertical2" tilewidth="32" tileheight="32" spacing="2" margin="2" tilecount="1024" columns="30">
  <image source="../textures/Reactor_vertical2.png" width="1024" height="1024"/>
 </tileset>
 <tileset firstgid="6454" name="mesa_fisica2" tilewidth="32" tileheight="32" spacing="2" margin="2" tilecount="64" columns="7">
  <image source="../textures/mesa_fisica2.png" width="256" height="256"/>
 </tileset>
 <tileset firstgid="6518" name="tanque1" tilewidth="32" tileheight="32" spacing="2" margin="2" tilecount="49" columns="7">
  <image source="../textures/tanque1.png" width="256" height="256"/>
 </tileset>
 <tileset firstgid="6567" name="Escritorio" tilewidth="32" tileheight="32" spacing="2" margin="2" tilecount="64" columns="7">
  <image source="../textures/Escritorio.png" width="256" height="256"/>
 </tileset>
 <tileset firstgid="6631" name="wifi" tilewidth="32" tileheight="32" spacing="2" margin="2" tilecount="900" columns="30">
  <image source="../textures/wifi.png" width="1024" height="1024"/>
 </tileset>
 <tileset firstgid="7531" name="Computadora" tilewidth="32" tileheight="32" spacing="2" margin="2" tilecount="64" columns="7">
  <image source="../textures/Computadora.png" width="256" height="256"/>
 </tileset>
 <tileset firstgid="7595" name="boton" tilewidth="32" tileheight="32" spacing="2" margin="2" tilecount="810" columns="30">
  <image source="../textures/boton.png" width="1024" height="934"/>
 </tileset>
 <tileset firstgid="8405" name="camaritaApagada" tilewidth="32" tileheight="32" spacing="2" margin="2" tilecount="49" columns="7">
  <image source="../textures/camaritaApagada.png" width="256" height="256"/>
 </tileset>
 <tileset firstgid="8454" name="grieta" tilewidth="32" tileheight="32" tilecount="225" columns="15">
  <image source="../textures/grieta.png" width="500" height="500"/>
 </tileset>
 <tileset firstgid="8679" name="caballete1" tilewidth="32" tileheight="32" tilecount="64" columns="8">
  <image source="../textures/caballete1.png" width="256" height="256"/>
 </tileset>
 <tileset firstgid="8743" name="mesadedibujo" tilewidth="32" tileheight="32" tilecount="64" columns="8">
  <image source="../textures/mesadedibujo.png" width="256" height="256"/>
 </tileset>
 <tileset firstgid="8807" name="navecita6_2" tilewidth="32" tileheight="32" tilecount="64" columns="8">
  <image source="../textures/navecita6.png" width="256" height="256"/>
 </tileset>
 <layer id="6" name="fondo" width="41" height="30">
  <data encoding="csv">
1,2,3,4,5,6,7,40,40,40,40,40,40,40,40,40,40,40,40,40,40,40,10,11,783,784,785,786,787,788,789,790,791,792,793,794,795,796,797,798,799,
33,34,35,36,37,38,8,358,359,360,8,2147483907,2147483906,2147483905,8,9,9,8,9,8,8,8,42,43,815,816,817,818,819,820,821,822,823,824,825,826,827,828,829,830,831,
65,66,67,68,69,70,40,8,8,8,8,2147483939,2147483938,2147483937,8,9,41,8,9,8,40,8,781,846,847,848,849,850,851,852,853,854,855,856,857,858,859,860,861,862,863,
97,98,99,100,101,102,8,8,8,424,8,2147483971,2147483970,2147483969,9,9,8,8,9,9,41,358,359,360,879,880,881,882,883,884,885,886,887,888,889,890,891,892,893,894,895,
129,130,131,132,8,101,8,8,8,8,8,8,8,9,9,9,40,8,9,41,8,390,391,392,8,912,913,914,915,916,917,918,919,920,921,922,923,924,925,926,927,
195,40,40,40,40,133,8,9,8,8,8,8,8,9,41,9,8,9,41,2147484008,2147484007,422,423,424,8,944,945,946,947,948,949,950,951,952,953,954,955,956,957,958,959,
449,450,451,9,9,9,8,9,8,8,8,9,8,9,41,8,9,41,41,8,8,8,8,974,40,976,977,978,979,980,981,982,983,984,985,986,987,988,989,990,991,
481,482,483,41,41,8,9,41,8,8,41,8,9,8,9,8,9,40,8,40,40,8,40,1006,1007,1008,1009,1010,1011,1012,1013,1014,1015,1016,1017,1018,1019,1020,1021,1022,1023,
8,8,8,8,9,8,9,9,8,8,8,9,8,8,9,9,41,8,40,40,40,8,8,1038,1039,1040,1041,1042,1043,1044,1045,1046,1047,1048,1049,1050,1051,1052,1053,1054,1055,
40,9,8,8,9,8,8,8,8,8,8,9,40,8,9,9,8,40,8,9,40,8,8,1070,1071,1072,1073,1074,1075,1076,1077,1078,1079,1080,1081,1082,1083,1084,1085,1086,1087,
257,258,259,259,9,9,40,8,8,8,9,8,40,8,9,9,40,8,9,41,40,8,40,1102,1103,1104,1105,1106,1107,1108,1109,1110,1111,1112,1113,1114,1115,1116,1117,1118,1119,
289,290,291,291,41,41,8,9,8,8,8,40,8,9,41,9,41,8,9,40,40,8,40,1134,1135,1136,1137,1138,1139,1140,1141,1142,1143,1144,1145,1146,1147,1148,1149,1150,1151,
321,322,323,9,41,41,8,9,8,9,40,41,8,8,9,41,8,9,41,8,40,8,40,1166,1167,1168,1169,1170,1171,1172,1173,1174,1175,1176,1177,1178,1179,1180,1181,1182,1183,
8,40,8,9,41,8,8,9,8,9,40,8,9,8,9,41,8,9,41,40,40,8,40,1198,1199,1200,1201,1202,1203,1204,1205,1206,1207,1208,1209,1210,1211,1212,1213,1214,1215,
8,40,8,9,41,40,8,8,8,8,40,8,8,8,9,41,8,9,8,8,8,8,40,1198,1199,1200,1201,1202,1235,1236,1237,1238,1239,1240,1241,1242,1243,1244,1245,1246,1247,
40,41,40,40,8,40,8,8,8,8,8,40,41,8,8,9,41,8,8,40,40,40,40,1230,1231,1232,1233,1234,1267,1268,1269,1270,1271,1272,1273,1274,1275,1276,1277,1278,1279,
8,41,8,40,8,40,8,8,8,8,8,8,8,8,8,8,8,9,8,492,525,526,527,528,529,530,531,498,1299,1300,1301,1302,1303,1304,1305,1306,1307,1308,1309,1310,1311,
8,9,8,40,8,8,8,8,8,8,8,8,8,8,8,8,8,8,40,524,525,526,527,560,561,562,563,530,1331,1332,1333,1334,1335,1336,1337,1338,1339,1340,1341,1342,1343,
40,41,8,40,8,8,8,8,8,8,8,8,8,8,8,8,8,40,8,556,557,558,559,528,529,562,563,562,1364,1365,1366,1399,1400,1401,1402,1403,1404,1405,1406,1407,1408,
40,40,8,8,8,8,8,8,8,8,8,41,41,40,41,8,8,8,40,40,8,8,427,1390,1391,1393,1394,1395,1396,1397,1430,1367,1368,1433,1434,1435,1436,1437,1438,1439,1440,
8,8,40,40,40,41,9,8,8,9,41,40,41,8,8,40,40,8,8,8,40,40,1421,1422,1423,1425,1426,1427,1428,1429,1430,1431,1432,1433,1434,1435,1468,1469,1470,1471,1472,
8,40,9,40,40,41,8,9,41,41,8,8,8,40,40,41,9,40,40,8,8,8,1453,1454,1455,1457,1458,1459,1460,1461,1462,1463,1464,1465,1497,1499,1500,1501,1502,1503,1504,
8,8,9,40,41,8,9,41,8,8,40,40,40,41,40,41,41,9,8,40,8,8,204,1486,1487,1488,1489,1491,1492,1493,1494,1495,1496,1496,1530,1531,1532,1533,1534,1535,1536,
40,40,8,8,9,8,8,8,40,40,41,9,8,8,8,40,41,41,9,9,40,40,1485,1518,1519,1520,1521,1522,1524,1525,1526,1527,1560,1561,1562,1563,1564,1565,1566,1567,1568,
8,8,358,359,360,40,40,40,41,41,41,41,8,40,8,40,8,9,41,41,41,9,1517,1550,1551,1552,1553,1554,1588,1589,1590,1591,1592,1593,1594,1595,1596,1597,1598,1599,1600,
8,40,390,391,392,41,41,8,40,41,8,9,9,8,8,9,8,9,40,8,9,41,8,1582,1583,1584,1585,1586,1620,1621,1622,1623,1624,1625,1626,1627,1628,1629,1630,1631,1632,
8,41,422,423,424,40,41,8,9,41,8,9,41,8,9,9,8,9,8,8,9,41,8,1614,1615,1616,1617,1618,1652,1653,1654,1655,1656,1657,1658,1659,1660,1661,1662,1663,1664,
641,642,643,644,645,646,647,648,9,8,8,9,41,8,9,8,8,8,8,8,9,8,8,1646,1647,1648,1682,1683,1684,1685,1686,1687,1688,1689,1690,1691,1692,1693,1694,1695,1696,
673,674,675,676,677,678,679,680,8,8,9,41,41,8,9,40,8,8,40,8,9,8,358,1678,1679,1680,1714,1715,1716,1717,1718,1719,1720,1721,1722,1723,1724,1725,1726,1727,1728,
705,706,707,708,709,710,711,712,40,8,8,8,8,8,8,8,40,8,40,8,8,8,8,1710,1711,1712,1746,1747,1748,1749,1750,1751,1752,1753,1754,1755,1756,1757,1758,1759,1760
</data>
 </layer>
 <layer id="13" name="pasillo" width="41" height="30">
  <data encoding="csv">
0,0,0,0,0,0,0,0,0,0,0,0,0,0,0,0,0,0,0,0,0,0,0,0,0,0,0,0,0,0,0,0,0,0,0,0,0,0,0,0,0,
0,0,0,0,0,0,0,0,0,0,0,0,0,0,0,0,0,0,0,0,0,0,0,0,0,0,0,0,0,0,0,0,0,0,0,0,0,0,0,0,0,
0,0,0,0,0,0,0,0,0,0,0,0,0,0,0,0,0,0,0,0,0,0,0,0,0,0,0,0,0,0,0,0,0,0,0,0,0,0,0,0,0,
0,0,0,0,0,0,0,0,0,0,0,0,0,0,0,0,0,0,0,0,0,0,0,0,0,0,0,0,0,0,0,0,0,0,0,0,0,0,0,0,0,
0,0,0,0,0,0,0,0,0,0,0,0,0,0,0,0,0,0,0,0,0,0,0,425,3221225994,3221225993,491,0,0,0,0,0,0,0,0,0,0,0,0,0,0,
0,0,0,0,0,0,0,0,0,0,0,0,0,0,0,0,0,0,0,0,0,0,0,1610613284,200,200,523,0,0,0,0,0,0,0,0,0,0,0,0,0,0,
0,0,0,0,0,0,0,0,0,0,0,3221225994,3221225993,3221225993,3221225993,3221225993,3221225993,3221225993,200,200,3221225994,3221225994,3221225994,3221225705,200,233,0,0,0,0,0,0,0,0,0,0,0,0,0,0,0,
0,0,0,0,0,0,0,0,0,0,0,200,200,200,200,200,200,200,200,200,200,200,200,200,582,0,0,0,0,0,0,0,0,0,0,0,0,0,0,0,0,
0,0,0,0,0,0,0,0,0,0,0,200,200,200,520,521,521,2684354793,200,200,233,522,522,522,0,0,0,0,0,0,0,0,0,0,0,0,0,0,0,0,0,
0,0,0,3758096906,2147483848,2147483848,536871492,0,0,0,0,2684355081,200,233,0,0,0,2684355082,200,200,1610613258,0,0,0,0,0,0,0,0,0,0,0,0,0,0,0,0,0,0,0,0,
0,0,0,3758096905,2147483848,2147483848,536871492,0,0,0,0,2684355082,200,536871434,0,0,0,0,0,0,1610613257,0,0,0,0,0,0,0,0,0,0,0,0,0,0,0,0,0,0,0,0,
0,0,0,0,0,0,0,0,0,0,0,2684355082,200,536871434,0,0,0,0,0,0,0,0,0,0,0,0,0,0,0,0,0,0,0,0,0,0,0,0,0,0,0,
0,0,0,0,0,0,0,0,0,0,0,2684355082,200,536871433,0,0,0,0,0,0,0,0,0,0,0,0,0,0,0,0,0,0,0,0,0,0,0,0,0,0,0,
0,0,0,0,0,0,0,0,0,0,0,2684355082,200,536871434,0,0,0,0,0,0,0,0,0,0,0,0,0,0,0,0,0,0,0,0,0,0,0,0,0,0,0,
0,0,0,0,0,0,0,0,0,2684355017,0,2684355082,200,536871433,0,0,0,0,0,0,0,0,0,0,0,0,0,0,0,0,0,0,0,0,0,0,0,0,0,0,0,
0,0,0,0,0,0,0,2684355081,200,1610613258,0,2684355082,200,536871434,0,0,0,0,0,0,0,0,0,0,0,0,0,0,0,0,0,0,0,0,0,0,0,0,0,0,0,
0,0,0,457,458,3221225993,3221225993,3221225705,200,1610612969,1073742346,3221225705,200,1610612969,1073742346,3221225994,3221225993,0,0,0,0,0,0,0,0,0,0,0,0,0,0,0,0,0,0,0,0,0,0,0,0,
0,0,0,0,200,201,200,200,200,200,200,200,200,200,200,200,200,0,0,0,0,0,526,527,528,0,0,0,0,0,0,0,0,0,0,0,0,0,0,0,0,
0,0,0,521,522,521,521,2684355140,200,233,2147484169,2147484169,2147484169,521,522,387,387,2684355108,0,0,3758096908,3758096908,1610613260,525,560,0,0,0,0,0,0,0,0,0,0,0,0,0,0,0,0,
0,0,0,0,0,0,0,2684355140,200,1610613258,0,0,0,0,0,200,200,1073742375,1073742345,1073742346,548,550,490,524,0,0,0,0,0,0,0,0,0,0,0,0,0,0,0,0,0,
0,0,0,0,0,0,0,2684355140,200,1610613257,0,0,0,0,0,2147484230,2147484229,200,200,200,387,387,520,483,0,0,0,0,0,0,0,0,0,0,0,0,0,0,0,0,0,
0,0,0,0,0,0,0,0,0,0,0,0,0,0,0,0,521,522,200,200,387,582,483,483,0,0,0,0,0,0,0,0,0,0,0,0,0,0,0,0,0,
0,0,0,0,0,0,0,0,0,0,0,0,0,0,0,0,0,0,0,0,536871434,0,0,0,0,0,0,0,0,0,0,0,0,0,0,0,0,0,0,0,0,
0,0,0,0,0,0,0,0,0,0,0,0,0,0,0,0,0,0,0,0,0,0,0,0,0,0,0,0,0,0,0,0,0,0,0,0,0,0,0,0,0,
0,0,0,0,0,0,0,0,2684354979,200,200,1610613258,0,0,0,0,0,0,0,0,0,0,0,0,0,0,0,0,0,0,0,0,0,0,0,0,0,0,0,0,0,
0,0,0,0,0,0,0,0,2684354979,200,200,1610613258,0,0,0,0,0,0,0,549,550,0,0,0,0,0,0,0,0,0,0,0,0,0,0,0,0,0,0,0,0,
0,0,0,0,0,0,0,0,2684354980,200,200,1610612969,547,548,547,548,1073742346,3221225994,3221225993,581,2147484035,0,0,0,0,0,0,0,0,0,0,0,0,0,0,0,0,0,0,0,0,
0,0,0,0,0,0,0,0,0,581,200,200,200,200,200,200,200,200,200,2147484035,2147484068,0,0,0,0,0,0,0,0,0,0,0,0,0,0,0,0,0,0,0,0,
0,0,0,0,0,0,0,0,0,613,2147484169,2147484169,2147484169,2147484169,2147484169,521,522,521,522,2147484067,0,0,0,0,0,0,0,0,0,0,0,0,0,0,0,0,0,0,0,0,0,
0,0,0,0,0,0,0,0,0,0,0,0,0,0,0,611,612,553,554,0,0,0,0,0,0,0,0,0,0,0,0,0,0,0,0,0,0,0,0,0,0
</data>
 </layer>
 <layer id="10" name="piso" width="41" height="30">
  <data encoding="csv">
0,0,0,0,0,0,0,0,0,0,0,0,0,0,0,0,0,0,0,0,0,0,0,0,0,0,0,0,0,0,0,0,0,0,0,0,0,0,0,0,0,
0,0,0,0,0,0,0,0,0,0,0,0,0,0,0,0,0,0,0,0,0,0,0,0,0,0,0,0,0,0,0,0,0,0,0,0,0,0,0,0,0,
0,0,0,0,0,0,0,0,0,0,0,0,0,0,0,0,0,0,0,0,0,0,0,0,0,0,0,0,0,0,0,0,0,0,0,0,0,0,0,0,0,
0,0,0,0,0,0,0,0,0,0,0,0,0,0,0,0,0,0,0,0,0,0,0,0,0,0,0,0,0,1816,1816,1816,1816,1816,1816,0,0,0,0,0,0,
0,0,0,0,0,0,0,0,0,0,0,0,0,0,0,0,0,0,0,0,0,0,0,0,0,0,0,0,0,1816,1816,1816,1816,1816,1816,0,0,0,0,0,0,
0,0,0,1813,1813,1813,1813,1813,1813,1813,1813,0,0,0,0,0,0,0,0,0,0,0,0,0,0,0,0,0,0,1816,1816,1816,1816,1816,1816,0,0,0,0,0,0,
0,0,0,1813,1813,1813,1813,1813,1813,1813,1813,0,0,0,0,0,0,0,0,0,0,0,0,0,0,0,0,0,0,1816,1816,1816,1816,1816,1816,0,0,0,0,0,0,
0,0,0,1813,1813,1813,1813,1813,1813,1813,1813,0,0,0,0,0,0,0,0,0,0,0,0,0,0,0,0,0,0,0,0,0,0,0,0,0,0,0,0,0,0,
0,0,0,1813,1813,1813,1813,1813,1813,1813,1813,0,0,0,0,0,0,0,0,0,0,0,0,0,0,0,0,0,0,0,0,0,0,0,0,0,0,0,0,0,0,
0,0,0,0,0,0,0,0,0,0,0,0,0,0,0,0,0,0,0,0,0,0,0,0,0,0,0,0,0,0,0,0,0,0,0,0,0,0,0,0,0,
0,0,0,0,0,0,0,0,0,0,0,0,0,0,1862,1862,1862,1862,1862,1862,1862,1862,1862,1862,0,0,0,0,0,0,0,0,0,0,0,0,0,0,0,0,0,
0,0,0,1863,1863,1863,1863,1863,1863,1863,1863,0,0,0,1862,1862,1862,1862,1862,1862,1862,1862,1862,1862,0,0,0,0,0,0,0,0,0,0,0,0,0,0,0,0,0,
0,0,0,1863,1863,1863,1863,1863,1863,1863,1863,0,0,0,1862,1862,1862,1862,1862,1862,1862,1862,1862,1862,0,0,0,0,0,0,0,0,0,0,0,0,0,0,0,0,0,
0,0,0,1863,1863,1863,1863,1863,1863,1863,1863,0,0,0,1862,1862,1862,1862,1862,1862,1862,1862,1862,1862,0,0,0,0,0,0,0,0,0,0,0,0,0,0,0,0,0,
0,0,0,1863,1863,1863,1863,1863,1863,1863,1863,0,0,0,1862,1862,1862,1862,1862,1862,1862,1862,1862,1862,0,0,0,0,0,0,0,0,0,0,0,0,0,0,0,0,0,
0,0,0,0,0,0,0,0,0,0,0,0,0,0,1862,1862,1862,1862,1862,1862,1862,1862,1862,1862,0,0,0,0,0,0,0,1864,1864,1864,1864,1864,1864,1864,1864,1864,0,
0,0,0,0,0,0,0,0,0,0,0,0,0,0,0,0,0,1862,1862,1862,1862,0,0,0,0,0,0,0,0,0,0,1864,1864,1864,1864,1864,1864,1864,1864,1864,0,
0,1860,1860,1860,1860,0,0,0,0,0,0,0,0,0,0,0,0,1862,1862,1862,1862,0,0,0,0,0,0,0,0,0,0,1864,1864,1864,1864,1864,1864,1864,1864,1864,0,
0,1860,1860,1860,1860,0,0,0,0,0,0,0,0,0,0,0,0,0,0,484,484,0,0,0,0,0,0,0,0,0,0,1864,1864,1864,1864,1864,1864,1864,1864,1864,0,
0,1860,1860,1860,1860,0,0,0,0,0,0,0,0,0,0,0,0,0,0,0,0,0,0,0,0,0,0,0,0,0,0,0,0,0,0,0,0,0,0,0,0,
0,1860,1860,1860,1860,0,1865,1865,1865,1865,1865,1865,1865,1865,0,0,0,0,0,0,0,0,0,0,0,0,0,0,0,0,0,0,0,0,0,0,0,0,0,0,0,
0,1860,1860,1860,1860,0,1865,1865,1865,1865,1865,1865,1865,1865,0,0,0,0,0,0,0,0,0,0,0,0,0,0,0,0,0,0,0,0,0,0,0,0,0,0,0,
0,1860,1860,1860,1860,0,1865,1865,1865,1865,1865,1865,1865,1865,0,0,0,1859,1859,1859,1859,0,0,0,0,0,0,0,0,0,0,0,0,0,0,0,0,0,0,0,0,
0,0,0,0,0,0,1865,1865,1865,1865,1865,1865,1865,1865,0,0,0,1810,1859,1859,1859,1859,1859,1859,1810,1810,0,0,0,0,0,0,0,0,0,0,0,0,0,0,0,
0,0,0,0,0,0,0,0,0,0,0,0,0,0,0,0,0,1810,1859,1859,1859,1859,1859,1859,1810,1810,0,0,0,0,0,0,0,0,0,0,0,0,0,0,0,
0,0,0,0,0,0,0,0,0,0,0,0,0,0,0,0,0,1810,1810,1810,1859,1859,1859,1859,1810,1810,0,0,0,0,0,0,0,0,0,0,0,0,0,0,0,
0,0,0,0,0,0,0,0,0,0,0,0,0,0,0,0,0,0,0,0,0,0,0,0,0,0,0,0,0,0,0,0,0,0,0,0,0,0,0,0,0,
0,0,0,0,0,0,0,0,0,0,0,0,0,0,0,0,0,0,0,0,0,0,0,0,0,0,0,0,0,0,0,0,0,0,0,0,0,0,0,0,0,
0,0,0,0,0,0,0,0,0,0,0,0,0,0,0,0,0,0,0,0,0,0,0,0,0,0,0,0,0,0,0,0,0,0,0,0,0,0,0,0,0,
0,0,0,0,0,0,0,0,0,0,0,0,0,0,0,0,0,0,0,0,0,0,0,0,0,0,0,0,0,0,0,0,0,0,0,0,0,0,0,0,0
</data>
 </layer>
 <layer id="16" name="detallesdetraspared" width="41" height="30">
  <data encoding="csv">
0,0,0,0,0,0,0,0,0,0,0,0,0,0,0,0,0,0,0,0,0,0,0,0,0,0,0,0,0,0,0,0,0,0,0,0,0,0,0,0,0,
0,0,0,0,0,0,0,0,0,0,0,0,0,0,0,0,0,0,0,0,0,0,0,0,0,0,0,0,0,0,0,0,0,0,0,0,0,0,0,0,0,
0,0,0,0,0,0,0,0,0,0,0,0,0,0,0,0,0,0,0,0,0,0,0,0,0,0,0,0,0,0,0,0,0,0,0,0,0,0,0,0,0,
0,0,0,0,0,0,0,0,0,0,0,0,0,0,0,0,0,0,0,0,0,0,0,0,0,0,0,0,0,0,0,0,0,0,0,0,0,0,0,0,0,
0,0,0,0,0,0,0,0,0,0,0,0,0,0,0,0,0,0,0,0,0,0,0,0,0,0,0,0,0,0,0,0,0,0,0,0,0,0,0,0,0,
0,0,0,0,0,0,0,0,0,0,0,0,0,0,0,0,0,0,0,0,0,0,0,0,0,0,0,0,0,0,0,0,0,0,0,0,0,0,0,0,0,
0,0,0,0,0,0,0,0,0,0,0,0,0,0,0,0,0,0,0,0,0,0,0,0,0,0,0,0,0,0,0,0,0,0,0,0,0,0,0,0,0,
0,0,0,0,0,0,0,0,0,0,0,0,0,0,0,0,0,0,0,0,0,0,0,0,0,0,0,0,0,0,0,0,0,0,0,0,0,0,0,0,0,
0,0,0,0,4305,0,0,0,0,0,0,0,0,0,0,0,0,0,0,0,0,0,0,0,0,0,0,0,0,0,0,0,0,0,0,0,0,0,0,0,0,
0,0,0,0,0,0,0,5488,5489,5488,5489,0,0,0,0,0,0,0,0,0,0,0,0,0,0,0,0,0,0,0,0,0,0,0,0,0,0,0,0,0,0,
0,0,0,0,0,0,0,0,0,0,0,0,0,0,0,0,0,0,0,0,0,0,0,0,0,0,0,0,0,0,0,0,0,0,0,0,0,0,0,0,0,
0,0,0,0,0,0,0,0,0,0,0,0,0,0,0,0,0,0,0,0,0,0,0,0,0,0,0,0,0,0,0,0,0,0,0,0,0,0,0,0,0,
0,0,0,0,0,0,0,0,0,0,0,0,0,0,0,0,0,0,0,0,0,0,0,0,0,0,0,0,0,0,0,0,0,0,0,0,0,0,0,0,0,
0,0,0,6567,6568,6569,6570,0,0,0,0,0,0,0,0,0,0,0,0,0,0,0,0,0,0,0,0,0,0,0,0,0,0,0,0,0,0,0,0,0,0,
0,0,0,6574,6575,6576,6577,0,0,0,0,0,0,0,0,0,0,0,0,0,0,0,0,0,0,0,0,0,0,0,0,0,0,0,0,0,0,0,0,0,0,
0,0,0,0,0,0,0,0,0,0,0,0,0,0,0,0,0,0,0,0,0,0,0,0,0,0,0,0,0,0,0,4767,4768,0,0,0,0,0,0,0,0,
0,0,0,0,0,0,0,0,0,0,0,0,0,0,0,0,0,0,0,0,0,0,0,0,0,0,0,0,0,0,0,4784,4785,0,0,0,0,0,0,0,0,
0,0,0,0,0,0,0,0,0,0,0,0,0,0,0,0,0,0,0,0,0,0,0,0,0,0,0,0,0,0,0,0,0,0,0,0,4443,4444,4443,4444,0,
0,0,0,0,0,0,0,0,0,0,0,0,0,0,0,0,0,0,0,0,0,0,0,0,0,0,0,0,0,0,0,0,0,0,0,0,4460,4461,4460,4461,0,
0,0,0,0,0,0,0,0,0,0,0,0,0,0,0,0,0,0,0,0,0,0,0,0,0,0,0,0,0,0,0,0,0,0,0,0,0,0,0,0,0,
0,0,0,4394,4395,0,0,0,0,0,0,0,0,0,0,0,0,0,0,0,0,0,0,0,0,0,0,0,0,0,0,0,0,0,0,0,0,0,0,0,0,
0,0,0,4401,4402,0,0,0,0,0,0,0,0,0,0,0,0,0,0,0,1823,0,0,0,0,0,0,0,0,0,0,0,0,0,0,0,0,0,0,0,0,
0,0,0,4408,4409,0,0,4296,4297,4298,0,4296,4297,4298,0,0,0,0,0,0,1830,0,0,0,0,0,0,0,0,0,0,0,0,0,0,0,0,0,0,0,0,
0,0,4415,4416,0,0,0,4303,4304,4305,4299,4303,4304,4305,0,0,0,0,0,0,0,0,0,0,0,0,0,0,0,0,0,0,0,0,0,0,0,0,0,0,0,
0,0,0,0,0,0,0,0,0,0,0,0,0,4305,0,0,0,8743,8744,0,0,0,0,0,0,0,0,0,0,0,0,0,0,0,0,0,0,0,0,0,0,
0,0,0,0,0,0,0,0,0,0,0,0,0,0,0,0,0,8751,8752,0,0,0,0,0,0,0,0,0,0,0,0,0,0,0,0,0,0,0,0,0,0,
0,0,0,0,0,0,0,0,0,0,0,0,0,0,0,0,0,0,0,0,0,0,0,0,0,0,0,0,0,0,0,0,0,0,0,0,0,0,0,0,0,
0,0,0,0,0,0,0,0,0,0,0,0,0,0,0,0,0,0,0,0,0,0,0,0,0,0,0,0,0,0,0,0,0,0,0,0,0,0,0,0,0,
0,0,0,0,0,0,0,0,0,0,0,0,0,0,0,0,0,0,0,0,0,0,0,0,0,0,0,0,0,0,0,0,0,0,0,0,0,0,0,0,0,
0,0,0,0,0,0,0,0,0,0,0,0,0,0,0,0,0,0,0,0,0,0,0,0,0,0,0,0,0,0,0,0,0,0,0,0,0,0,0,0,0
</data>
 </layer>
 <layer id="7" name="pared1" width="41" height="30">
  <data encoding="csv">
0,0,0,0,0,0,0,0,0,0,0,0,0,0,0,0,0,0,0,0,0,0,0,0,0,0,0,0,0,0,0,0,0,0,0,0,0,0,0,0,0,
0,0,0,0,0,0,0,0,0,0,0,0,0,0,0,0,0,0,0,0,0,0,0,0,0,0,0,0,0,0,0,0,0,0,0,0,0,0,0,0,0,
0,0,0,0,0,0,0,0,0,0,0,0,0,0,0,0,0,0,0,0,0,0,0,0,0,0,0,0,0,1823,1823,1823,1823,1823,1823,0,0,0,0,0,0,
0,0,0,0,0,0,0,0,0,0,0,0,0,0,0,0,0,0,0,0,0,0,0,0,0,0,0,0,0,1787,1787,1787,1787,1787,1787,0,0,0,0,0,0,
0,0,0,1823,1823,1823,1823,1823,1823,1823,1823,0,0,0,0,0,0,0,0,0,0,0,0,0,0,0,0,0,0,0,0,0,0,0,0,0,0,0,0,0,0,
0,0,0,1830,1830,1830,1768,1830,1830,1830,1830,0,0,0,0,0,0,0,0,0,0,0,0,0,0,0,0,0,0,0,0,0,0,0,0,0,0,0,0,0,0,
0,0,0,0,0,0,0,0,0,0,0,0,0,0,0,0,0,0,0,0,0,0,0,0,0,0,0,0,0,1823,1823,1823,1823,1823,1823,0,0,0,0,0,0,
0,0,0,0,0,0,0,0,0,0,0,0,0,0,0,0,0,0,0,0,0,0,0,0,0,0,0,0,0,1830,1830,1830,1830,1830,1830,0,0,0,0,0,0,
0,0,0,5094,0,0,1823,1823,1823,1823,1823,0,0,0,0,0,0,0,0,0,0,0,0,0,0,0,0,0,0,0,0,0,0,0,0,0,0,0,0,0,0,
0,0,0,5101,0,0,1830,1830,1830,1830,1830,0,0,0,1823,1823,1823,1823,0,0,1823,1823,1823,1823,0,0,0,0,0,0,0,0,0,0,0,0,0,0,0,0,0,
0,0,0,5094,0,0,1823,1823,1823,1823,1823,0,0,0,1830,1830,1830,1830,0,0,1830,1830,1830,1830,0,0,0,0,0,0,0,0,0,0,0,0,0,0,0,0,0,
0,0,0,5101,0,0,1830,1830,1830,1830,1830,0,0,0,2147485476,0,0,0,0,0,0,0,0,0,0,0,0,0,0,0,0,0,0,0,0,0,0,0,0,0,0,
0,0,0,0,0,0,0,0,0,0,0,0,0,0,2147485476,0,0,0,0,0,0,0,0,0,0,0,0,0,0,0,0,0,0,0,0,0,0,0,0,0,0,
0,0,0,0,0,0,0,0,0,0,0,0,0,0,2147485476,0,0,0,0,0,0,0,0,0,0,0,0,0,0,0,0,0,0,0,0,0,0,0,0,0,0,
0,0,0,1823,1823,1823,1823,0,0,0,1823,0,0,0,2147485476,0,0,0,0,0,0,0,0,0,0,0,0,0,0,0,0,1823,1823,1823,1823,1823,1823,1823,1823,1823,0,
0,0,0,1830,1830,1830,1830,0,0,0,1830,0,0,0,2147485476,0,5093,0,0,0,0,2147488741,1823,1823,0,0,0,0,0,0,0,1830,1830,1830,1830,1830,1830,1830,1830,1830,0,
0,1823,1823,1823,1823,0,0,0,0,0,0,0,0,0,0,0,5100,0,0,0,0,2147488748,1830,1830,0,0,0,0,0,0,0,0,0,0,0,0,0,0,0,0,0,
0,1830,1830,1830,1830,0,0,0,0,0,0,0,0,0,0,0,0,1823,1823,1823,1823,0,0,0,0,0,0,0,0,0,0,0,0,0,0,0,0,0,0,0,0,
0,0,0,0,0,0,0,0,0,0,0,0,0,0,0,0,0,1830,1830,1830,1830,0,0,0,0,0,0,0,0,0,0,1823,1823,1823,1823,1823,1823,1823,1823,1823,0,
0,0,0,0,0,0,5094,0,0,1823,1823,1823,1823,1823,0,0,0,0,0,0,0,0,0,0,0,0,0,0,0,0,0,1830,1830,1830,1830,1830,1830,1830,1830,1830,0,
0,0,0,0,0,0,5101,0,0,1830,1830,1830,1830,1830,0,0,0,0,0,0,0,0,0,0,0,0,0,0,0,0,0,0,0,0,0,0,0,0,0,0,0,
0,0,0,0,0,0,2147485477,0,0,0,0,0,0,0,0,0,0,5094,0,0,5095,0,0,0,0,0,0,0,0,0,0,0,0,0,0,0,0,0,0,0,0,
0,1823,1823,1823,1823,0,2147485477,0,0,0,0,0,0,0,0,0,0,5101,0,0,5102,1823,1823,1823,1823,1823,0,0,0,0,0,0,0,0,0,0,0,0,0,0,0,
0,1830,1830,1830,1830,0,1823,1823,1823,0,0,1823,1823,1823,0,0,0,0,0,0,0,1830,1830,1830,1830,1830,0,0,0,0,0,0,0,0,0,0,0,0,0,0,0,
0,0,0,0,0,0,1830,1830,1830,0,0,1830,1830,1830,0,0,0,0,0,0,0,0,0,0,0,0,0,0,0,0,0,0,0,0,0,0,0,0,0,0,0,
0,0,0,0,0,0,0,0,0,0,0,0,0,0,0,0,0,1823,1823,0,0,1823,1823,1823,1823,1823,0,0,0,0,0,0,0,0,0,0,0,0,0,0,0,
0,0,0,0,0,0,0,0,0,0,0,0,0,0,0,0,0,1830,1830,0,0,1830,1830,1830,1830,1830,0,0,0,0,0,0,0,0,0,0,0,0,0,0,0,
0,0,0,0,0,0,0,0,0,0,0,0,0,0,0,0,0,0,0,0,0,0,0,0,0,0,0,0,0,0,0,0,0,0,0,0,0,0,0,0,0,
0,0,0,0,0,0,0,0,0,0,0,0,0,0,0,0,0,0,0,0,0,0,0,0,0,0,0,0,0,0,0,0,0,0,0,0,0,0,0,0,0,
0,0,0,0,0,0,0,0,0,0,0,0,0,0,0,0,0,0,0,0,0,0,0,0,0,0,0,0,0,0,0,0,0,0,0,0,0,0,0,0,0
</data>
 </layer>
 <layer id="8" name="pared2" width="41" height="30">
  <data encoding="csv">
0,0,0,0,0,0,0,0,0,0,0,0,0,0,0,0,0,0,0,0,0,0,0,0,0,0,0,0,0,0,0,0,0,0,0,0,0,0,0,0,0,
0,0,0,0,0,0,0,0,0,0,0,0,0,0,0,0,0,0,0,0,0,0,0,0,0,0,0,0,0,0,0,0,0,0,0,0,0,0,0,0,0,
0,0,0,0,0,0,0,0,0,0,0,0,0,0,0,0,0,0,0,0,0,0,0,0,0,0,0,0,0,1827,0,0,0,0,1829,0,0,0,0,0,0,
0,0,0,0,0,0,0,0,0,0,0,0,0,0,0,0,0,0,0,0,0,0,0,0,0,0,0,0,0,1827,0,0,0,0,1829,0,0,0,0,0,0,
0,0,0,1827,0,0,0,0,0,0,1829,0,0,0,0,0,0,0,0,0,0,0,0,0,0,0,0,0,0,2147485476,0,0,0,0,1829,0,0,0,0,0,0,
0,0,0,1827,0,0,0,0,0,0,1829,0,0,0,0,0,0,0,0,0,0,0,0,0,0,0,0,0,0,0,0,0,0,0,1829,0,0,0,0,0,0,
0,0,0,1827,0,0,0,0,0,0,1829,0,0,0,0,0,0,0,0,0,0,0,0,0,0,0,0,0,0,0,0,0,0,0,0,0,0,0,0,0,0,
0,0,0,1827,0,0,0,0,0,0,0,0,0,0,0,0,0,0,0,0,0,0,0,0,0,0,0,0,0,0,0,0,0,0,0,0,0,0,0,0,0,
0,0,0,0,0,0,5095,0,0,0,0,0,0,0,0,0,0,0,0,0,0,0,0,0,0,0,0,0,0,0,0,0,0,0,0,0,0,0,0,0,0,
0,0,0,0,0,0,5102,0,0,0,0,0,0,0,0,0,0,5094,0,0,5095,0,0,1829,0,0,0,0,0,0,0,0,0,0,0,0,0,0,0,0,0,
0,0,0,1827,0,0,5095,0,0,0,0,0,0,0,2147485477,0,0,5101,0,0,5102,0,0,1829,0,0,0,0,0,0,0,0,0,0,0,0,0,0,0,0,0,
0,0,0,1827,0,0,5102,0,0,0,1829,0,0,0,2147485477,0,0,0,0,0,0,0,0,1829,0,0,0,0,0,0,0,0,0,0,0,0,0,0,0,0,0,
0,0,0,1827,0,0,0,0,0,0,1829,0,0,0,2147485477,0,0,0,0,0,0,0,0,1829,0,0,0,0,0,0,0,0,0,0,0,0,0,0,0,0,0,
0,0,0,1827,0,0,0,0,0,0,1829,0,0,0,2147485477,0,0,0,0,0,0,0,0,1829,0,0,0,0,0,0,0,0,0,0,0,0,0,0,0,0,0,
0,0,0,0,0,0,5094,0,0,0,5095,0,0,0,2147485477,0,0,0,0,0,0,0,0,1829,0,0,0,0,0,0,0,2147485477,0,0,0,0,0,0,0,1829,0,
0,0,0,0,0,0,5101,0,0,0,5102,0,0,0,1823,1823,0,0,0,0,0,0,0,0,0,0,0,0,0,0,0,2147485477,0,0,0,0,0,0,0,1829,0,
0,1827,0,5091,5092,0,0,0,0,0,0,0,0,0,1830,1830,0,0,0,0,0,0,0,0,0,0,0,0,0,0,0,0,0,0,0,0,0,0,0,1829,0,
0,1827,0,5098,5099,0,0,0,0,0,0,0,0,0,0,0,0,0,0,0,0,0,0,0,0,0,0,0,0,0,0,0,0,0,0,0,0,0,0,1829,0,
0,1827,0,0,1829,0,0,0,0,0,0,0,0,0,0,0,0,0,0,0,0,0,0,0,0,0,0,0,0,0,0,0,0,0,0,0,0,0,0,0,0,
0,1827,0,0,1829,0,1827,0,0,5095,0,0,0,1829,0,0,0,0,0,0,0,0,0,0,0,0,0,0,0,0,0,0,0,0,0,0,0,0,0,0,0,
0,1827,0,0,1829,0,1827,0,0,5102,0,0,0,1829,0,0,0,0,0,0,0,0,0,0,0,0,0,0,0,0,0,0,0,0,0,0,0,0,0,0,0,
0,1827,0,0,1829,0,0,0,0,0,0,0,0,1829,0,0,0,5094,0,0,5095,0,0,0,0,0,0,0,0,0,0,0,0,0,0,0,0,0,0,0,0,
0,0,0,0,0,0,0,0,0,0,0,0,0,1829,0,0,0,2147485476,0,0,1828,0,0,0,0,1829,0,0,0,0,0,0,0,0,0,0,0,0,0,0,0,
0,0,0,0,0,0,0,0,5094,0,0,5095,0,0,0,0,0,2147485476,0,0,0,0,0,0,0,1829,0,0,0,0,0,0,0,0,0,0,0,0,0,0,0,
0,0,0,0,0,0,0,0,5101,0,0,5102,0,0,0,0,0,2147485476,0,0,0,0,0,0,0,1829,0,0,0,0,0,0,0,0,0,0,0,0,0,0,0,
0,0,0,0,0,0,0,0,0,0,0,0,0,0,0,0,0,2147485476,5094,0,0,5095,0,0,0,0,0,0,0,0,0,0,0,0,0,0,0,0,0,0,0,
0,0,0,0,0,0,0,0,0,0,0,0,0,0,0,0,0,0,5101,0,0,5102,0,0,0,0,0,0,0,0,0,0,0,0,0,0,0,0,0,0,0,
0,0,0,0,0,0,0,0,0,0,0,0,0,0,0,0,0,0,0,0,0,0,0,0,0,0,0,0,0,0,0,0,0,0,0,0,0,0,0,0,0,
0,0,0,0,0,0,0,0,0,0,0,0,0,0,0,0,0,0,0,0,0,0,0,0,0,0,0,0,0,0,0,0,0,0,0,0,0,0,0,0,0,
0,0,0,0,0,0,0,0,0,0,0,0,0,0,0,0,0,0,0,0,0,0,0,0,0,0,0,0,0,0,0,0,0,0,0,0,0,0,0,0,0
</data>
 </layer>
 <layer id="9" name="pared3" width="41" height="30">
  <data encoding="csv">
0,0,0,0,0,0,0,0,0,0,0,0,0,0,0,0,0,0,0,0,0,0,0,0,0,0,0,0,0,0,0,0,0,0,0,0,0,0,0,0,0,
0,0,0,0,0,0,0,0,0,0,0,0,0,0,0,0,0,0,0,0,0,0,0,0,0,0,0,0,0,0,0,0,0,0,0,0,0,0,0,0,0,
0,0,0,0,0,0,0,0,0,0,0,0,0,0,0,0,0,0,0,0,0,0,0,0,0,0,0,0,0,0,0,0,0,0,0,0,0,0,0,0,0,
0,0,0,0,0,0,0,0,0,0,0,0,0,0,0,0,0,0,0,0,0,0,0,0,0,0,0,0,0,2147485476,0,0,0,0,1828,0,0,0,0,0,0,
0,0,0,0,0,0,0,0,0,0,0,0,0,0,0,0,0,0,0,0,0,0,0,0,0,0,0,0,0,2147485477,0,0,0,0,1828,0,0,0,0,0,0,
0,0,0,2147485476,0,0,0,0,0,0,1828,0,0,0,0,0,0,0,0,0,0,0,0,0,0,0,0,0,0,0,0,0,0,0,1828,0,0,0,0,0,0,
0,0,0,2147485476,0,0,0,0,0,0,1828,0,0,0,0,0,0,0,0,0,0,0,0,0,0,0,0,0,0,0,0,0,0,0,1828,0,0,0,0,0,0,
0,0,0,2147485476,0,0,0,0,0,0,0,0,0,0,0,0,0,0,0,0,0,0,0,0,0,0,0,0,0,0,0,0,0,0,0,0,0,0,0,0,0,
0,0,0,2147485476,0,0,0,0,0,0,0,0,0,0,0,0,0,0,0,0,0,0,0,0,0,0,0,0,0,0,0,0,0,0,0,0,0,0,0,0,0,
0,0,0,0,0,0,0,0,0,0,0,0,0,0,2147485477,0,0,0,0,0,0,0,0,0,0,0,0,0,0,0,0,0,0,0,0,0,0,0,0,0,0,
0,0,0,0,0,0,0,0,0,0,1829,0,0,0,2147485476,0,0,0,0,0,0,0,0,1828,0,0,0,0,0,0,0,0,0,0,0,0,0,0,0,0,0,
0,0,0,2147485476,0,0,0,0,0,0,1828,0,0,0,0,0,0,0,0,0,0,0,0,1828,0,0,0,0,0,0,0,0,0,0,0,0,0,0,0,0,0,
0,0,0,2147485476,0,0,0,0,0,0,1828,0,0,0,0,0,0,0,0,0,0,0,0,1828,0,0,0,0,0,0,0,0,0,0,0,0,0,0,0,0,0,
0,0,0,2147485476,0,0,0,0,0,0,1828,0,0,0,0,0,0,0,0,0,0,0,0,1828,0,0,0,0,0,0,0,0,0,0,0,0,0,0,0,0,0,
0,0,0,2147485476,0,0,0,0,0,0,1828,0,0,0,0,0,0,0,0,0,0,0,0,1828,0,0,0,0,0,0,0,0,0,0,0,0,0,0,0,0,0,
0,0,0,0,0,0,0,0,0,0,0,0,0,0,0,0,0,0,0,0,0,0,0,1828,0,0,0,0,0,0,0,2147485476,0,0,0,0,0,0,0,1828,0,
0,0,0,0,0,0,0,0,0,0,0,0,0,0,0,0,0,0,0,0,0,0,0,0,0,0,0,0,0,0,0,2147485476,0,0,0,0,0,0,0,1828,0,
0,2147485476,0,0,0,0,0,0,0,0,0,0,0,0,0,0,0,0,0,0,0,0,0,0,0,0,0,0,0,0,0,0,0,0,0,0,0,0,0,1828,0,
0,2147485476,0,0,0,0,0,0,0,0,0,0,0,0,0,0,0,0,0,0,0,0,0,0,0,0,0,0,0,0,0,0,0,0,0,0,0,0,0,1828,0,
0,2147485476,0,0,1828,0,0,0,0,0,0,0,0,0,0,0,0,0,0,0,0,0,0,0,0,0,0,0,0,0,0,0,0,0,0,0,0,0,0,0,0,
0,2147485476,0,0,1828,0,1826,0,0,0,0,0,0,1828,0,0,0,0,0,0,0,0,0,0,0,0,0,0,0,0,0,0,0,0,0,0,0,0,0,0,0,
0,2147485476,0,0,1828,0,1826,0,0,0,0,0,0,1828,0,0,0,1827,0,0,1829,0,0,0,0,0,0,0,0,0,0,0,0,0,0,0,0,0,0,0,0,
0,2147485476,0,0,1828,0,1826,0,0,0,0,0,0,1828,0,0,0,1827,0,0,1829,0,0,0,0,0,0,0,0,0,0,0,0,0,0,0,0,0,0,0,0,
0,0,0,0,0,0,1826,0,0,0,0,0,0,1828,0,0,0,1827,0,0,1828,0,0,0,0,1828,0,0,0,0,0,0,0,0,0,0,0,0,0,0,0,
0,0,0,0,0,0,0,0,0,0,0,0,0,0,0,0,0,1827,0,0,0,0,0,0,0,1828,0,0,0,0,0,0,0,0,0,0,0,0,0,0,0,
0,0,0,0,0,0,0,0,0,0,0,0,0,0,0,0,0,0,0,0,0,0,0,0,0,1828,0,0,0,0,0,0,0,0,0,0,0,0,0,0,0,
0,0,0,0,0,0,0,0,0,0,0,0,0,0,0,0,0,0,0,0,0,0,0,0,0,0,0,0,0,0,0,0,0,0,0,0,0,0,0,0,0,
0,0,0,0,0,0,0,0,0,0,0,0,0,0,0,0,0,0,0,0,0,0,0,0,0,0,0,0,0,0,0,0,0,0,0,0,0,0,0,0,0,
0,0,0,0,0,0,0,0,0,0,0,0,0,0,0,0,0,0,0,0,0,0,0,0,0,0,0,0,0,0,0,0,0,0,0,0,0,0,0,0,0,
0,0,0,0,0,0,0,0,0,0,0,0,0,0,0,0,0,0,0,0,0,0,0,0,0,0,0,0,0,0,0,0,0,0,0,0,0,0,0,0,0
</data>
 </layer>
 <layer id="11" name="detalles" width="41" height="30">
  <data encoding="csv">
0,0,0,0,0,0,0,0,0,0,0,0,0,0,0,0,0,0,0,0,0,0,0,0,0,0,0,0,0,0,0,0,0,0,0,0,0,0,0,0,0,
0,0,0,0,0,0,0,0,0,0,0,0,0,0,0,0,0,0,0,0,0,0,0,0,0,0,0,0,0,0,0,0,0,0,0,0,0,0,0,0,0,
0,0,0,0,0,0,0,0,0,0,0,0,0,0,0,0,0,0,0,0,0,0,0,0,0,0,0,0,0,0,0,0,0,0,0,0,0,0,0,0,0,
0,0,0,0,0,0,0,0,0,0,0,0,0,0,0,0,0,0,0,0,0,0,0,0,0,0,0,0,0,0,0,6454,6455,6456,0,0,0,0,0,0,0,
0,0,0,0,0,0,0,0,0,0,0,0,0,0,0,0,0,0,0,0,0,0,0,0,0,0,0,0,0,0,0,6461,6462,6463,0,0,0,0,0,0,0,
0,0,0,5126,5127,0,0,5430,5431,5430,5431,5432,0,0,0,0,0,0,0,0,0,0,0,0,0,0,0,0,0,0,0,0,0,0,0,0,0,0,0,0,0,
0,0,0,0,5141,0,0,5460,5461,5460,5461,5462,0,0,0,0,0,0,0,0,0,0,0,0,0,0,0,0,0,0,0,0,0,0,0,0,0,0,0,0,0,
0,0,0,5155,0,0,0,5488,5489,5488,5489,0,0,0,0,0,0,0,0,0,0,0,0,0,0,0,0,0,0,0,0,0,0,0,0,0,0,0,0,0,0,
0,0,0,0,0,0,0,6518,6519,0,6518,6519,0,0,0,0,0,0,0,0,0,0,0,0,0,0,0,0,0,0,0,0,0,0,0,0,0,0,0,0,0,
0,0,0,0,0,0,0,6525,6526,0,6525,6526,0,0,0,0,0,0,0,0,0,0,0,0,0,0,0,0,0,0,0,0,0,0,0,0,0,0,0,0,0,
0,0,0,0,0,0,0,6532,6533,7533,6532,6533,0,0,0,0,0,0,0,0,0,0,0,0,0,0,0,0,0,0,0,0,0,0,0,0,0,0,0,0,0,
0,0,0,0,0,0,0,0,7538,7539,6631,0,0,0,0,0,0,2808,2809,2810,2811,0,0,0,0,0,0,0,0,0,0,0,0,0,0,0,0,0,0,0,0,
0,0,0,0,0,0,0,7544,0,7545,0,0,0,0,0,0,0,2838,2839,2840,2841,0,0,0,0,0,0,0,0,0,0,0,0,0,0,0,0,0,0,0,0,
0,0,0,0,0,0,0,0,0,0,0,0,0,0,0,0,0,2868,2869,2870,2871,0,0,0,0,0,0,0,0,0,0,0,0,0,0,0,0,0,0,0,0,
0,0,0,0,0,0,0,0,0,0,0,0,0,0,0,0,0,0,0,0,0,0,0,0,0,0,0,0,0,0,0,0,0,0,0,0,0,0,0,0,0,
0,0,0,0,0,0,0,0,0,0,0,0,0,0,0,0,0,0,0,0,0,0,0,0,0,0,0,0,0,0,0,4767,4768,0,4443,4444,4443,4444,4443,4444,0,
0,3821,3822,3823,0,0,0,0,0,0,0,0,0,0,0,0,0,0,0,0,0,0,0,0,0,0,0,0,0,0,0,0,0,0,4460,4461,4460,4461,4460,4461,0,
0,3840,3841,3842,0,0,0,0,0,0,0,0,0,0,0,0,0,0,0,0,0,0,0,0,0,0,0,0,0,0,0,4800,0,0,0,0,0,0,0,0,0,
0,3859,3860,3861,0,0,0,0,0,0,0,0,0,0,0,0,0,0,0,0,0,0,0,0,0,0,0,0,0,0,0,0,0,0,0,0,0,0,0,0,0,
0,0,0,0,0,0,0,0,0,0,4345,4346,4347,0,0,0,0,0,0,0,0,0,0,0,0,0,0,0,0,0,0,0,0,0,0,0,0,0,0,0,0,
0,0,0,0,0,0,0,0,0,0,4352,4353,4354,4348,0,0,0,0,0,0,0,0,0,0,0,0,0,0,0,0,0,0,0,0,0,0,0,0,0,0,0,
0,0,0,0,0,0,0,0,0,0,4359,4360,4361,4355,0,0,0,0,0,0,0,0,0,0,0,0,0,0,0,0,0,0,0,0,0,0,0,0,0,0,0,
0,0,0,0,0,0,0,0,0,0,0,0,0,4362,0,0,0,0,0,0,0,0,8679,8680,8681,0,0,0,0,0,0,0,0,0,0,0,0,0,0,0,0,
0,0,0,0,0,0,0,0,0,0,0,0,0,0,0,0,0,0,0,0,0,0,8687,8688,8689,0,0,0,0,0,0,0,0,0,0,0,0,0,0,0,0,
0,0,0,0,0,0,0,0,0,0,0,0,0,0,0,0,0,0,0,0,0,0,8695,8696,8697,0,0,0,0,0,0,0,0,0,0,0,0,0,0,0,0,
0,0,0,0,0,0,0,0,0,0,0,0,0,0,0,0,0,0,0,0,0,0,0,0,0,0,0,0,0,0,0,0,0,0,0,0,0,0,0,0,0,
0,0,0,0,0,0,0,0,0,0,0,0,0,0,0,0,0,0,0,0,0,0,0,0,0,0,0,0,0,0,0,0,0,0,0,0,0,0,0,0,0,
0,0,0,0,0,0,0,0,0,0,0,0,0,0,0,0,0,0,0,0,0,0,0,0,0,0,0,0,0,0,0,0,0,0,0,0,0,0,0,0,0,
0,0,0,0,0,0,0,0,0,0,0,0,0,0,0,0,0,0,0,0,0,0,0,0,0,0,0,0,0,0,0,0,0,0,0,0,0,0,0,0,0,
0,0,0,0,0,0,0,0,0,0,0,0,0,0,0,0,0,0,0,0,0,0,0,0,0,0,0,0,0,0,0,0,0,0,0,0,0,0,0,0,0
</data>
 </layer>
 <layer id="12" name="detalles2" width="41" height="30">
  <data encoding="csv">
0,0,0,0,0,0,0,0,0,0,0,0,0,0,0,3757,3758,3759,3760,3761,3762,3763,3764,0,0,0,0,0,0,0,0,0,0,0,0,0,0,0,0,0,0,
0,0,0,0,0,0,0,0,0,0,0,0,0,0,0,3765,3766,3767,3768,3769,3770,3771,3772,0,0,0,0,0,0,0,0,0,0,0,0,0,0,0,0,0,0,
0,0,0,0,0,0,0,0,0,0,0,0,0,0,0,3773,3774,3775,3776,3777,3778,3779,3780,0,0,0,0,0,0,0,0,0,0,0,0,0,0,0,0,0,0,
0,0,0,0,0,0,0,0,0,0,0,0,0,0,0,3781,3782,3783,3784,3785,3786,3787,3788,0,0,0,0,0,0,0,1768,0,0,0,0,0,0,0,0,0,0,
0,0,0,0,0,0,0,0,0,0,0,0,0,0,0,3789,3790,3791,3792,3793,3794,3795,3796,0,0,0,0,0,0,0,0,0,0,3708,3709,0,0,0,0,0,0,
0,0,0,5126,5127,0,0,0,0,0,0,0,0,0,0,3797,3798,3799,3800,3801,3802,3803,3804,0,0,0,0,0,0,0,0,0,0,3715,3716,0,0,0,0,0,0,
0,0,0,5141,5142,0,0,0,0,0,0,0,0,0,0,3805,3806,3807,3808,3809,3810,3811,3812,0,0,0,0,0,0,0,0,0,0,3722,3723,0,0,0,0,0,0,
0,0,0,5156,5157,0,0,0,0,0,0,0,0,0,0,3813,3814,3815,3816,3817,3818,3819,3820,0,0,0,0,0,0,0,0,0,0,0,0,0,0,0,0,0,0,
0,0,0,0,0,0,0,0,0,0,0,0,0,0,0,0,0,0,0,0,0,0,0,0,0,0,0,0,0,0,0,0,0,0,0,0,0,0,0,0,0,
0,0,0,0,0,0,0,0,0,0,0,0,0,0,0,0,0,0,0,0,0,0,0,0,0,0,0,0,0,0,0,0,0,0,0,0,0,0,0,0,0,
0,0,0,0,0,0,0,7531,7532,0,6632,0,0,0,0,0,0,0,0,0,0,0,0,0,0,0,0,0,0,0,0,0,0,0,0,0,0,0,0,0,0,
0,0,0,0,0,0,0,7538,7539,7540,0,0,0,0,0,1913,1914,1915,7595,7596,1913,1914,1915,0,0,0,0,0,0,0,0,0,0,0,0,0,0,0,0,0,0,
0,0,0,0,0,0,0,7545,7546,7547,0,0,0,0,0,1943,1944,1945,7597,7598,1943,1944,1945,0,0,0,0,0,0,0,0,0,0,0,0,0,0,0,0,0,0,
0,0,0,0,0,0,0,0,0,0,0,0,0,0,0,1973,1913,1914,1915,1913,1914,1915,1975,0,0,0,0,0,0,0,0,0,0,0,0,0,0,0,0,0,0,
0,0,0,0,0,0,0,0,0,0,0,0,0,0,0,0,1943,1944,1945,1943,1944,1945,0,0,0,0,0,0,0,0,0,0,0,0,0,0,0,0,0,0,0,
0,0,0,0,0,0,0,0,0,0,0,0,0,0,0,0,0,0,0,0,0,0,0,0,0,0,0,0,0,0,0,0,0,1768,0,0,0,0,0,0,0,
0,0,0,0,0,0,0,0,0,0,0,0,0,0,0,0,0,0,0,0,0,0,0,0,0,0,0,0,0,0,0,5093,0,0,0,0,0,0,0,0,0,
0,0,0,0,0,0,0,0,0,0,0,0,0,0,0,0,0,0,0,0,0,0,0,0,0,0,0,0,0,0,0,1769,0,0,0,0,0,0,0,0,0,
0,0,0,0,0,0,0,0,0,0,0,0,0,0,0,0,0,0,0,0,0,0,0,0,0,0,0,0,0,0,0,0,0,0,0,0,0,0,0,0,0,
0,0,0,0,0,0,0,0,0,0,0,0,0,0,0,0,0,0,0,0,0,0,0,0,0,0,0,0,0,0,0,0,0,0,0,0,0,0,0,0,0,
0,0,0,0,0,0,0,0,0,0,0,0,0,0,0,0,0,0,0,0,0,0,0,0,0,0,0,0,0,0,0,0,0,0,0,0,0,0,0,0,0,
0,0,0,0,0,0,0,0,0,0,0,0,0,0,0,0,0,0,0,0,0,0,0,0,0,0,0,0,0,0,0,0,0,0,0,0,0,0,0,0,0,
0,0,0,0,0,0,0,0,0,0,0,0,0,0,0,0,0,0,0,0,0,0,0,0,0,0,0,0,0,0,0,0,0,0,0,0,0,0,0,0,0,
0,0,0,0,0,0,0,0,0,0,0,0,0,0,0,0,0,0,0,0,0,0,0,0,0,0,0,0,0,0,0,0,0,0,0,0,0,0,0,0,0,
0,0,0,0,0,0,0,0,0,0,0,0,0,0,0,0,0,0,0,0,0,0,0,0,0,0,0,0,0,0,0,0,0,0,0,0,0,0,0,0,0,
0,0,0,0,0,0,0,0,0,0,0,0,0,0,0,0,0,0,0,0,0,0,0,0,0,0,0,0,0,0,0,0,0,0,0,0,0,0,0,0,0,
0,0,0,0,0,0,0,0,0,0,0,0,0,0,0,0,0,0,0,0,0,0,0,0,0,0,0,0,0,0,0,0,0,0,0,0,0,0,0,0,0,
0,0,0,0,0,0,0,0,0,0,0,0,0,0,0,0,0,0,0,0,0,0,0,0,0,0,0,0,0,0,0,0,0,0,0,0,0,0,0,0,0,
0,0,0,0,0,0,0,0,0,0,0,0,0,0,0,0,0,0,0,0,0,0,0,0,0,0,0,0,0,0,0,0,0,0,0,0,0,0,0,0,0,
0,0,0,0,0,0,0,0,0,0,0,0,0,0,0,0,0,0,0,0,0,0,0,0,0,0,0,0,0,0,0,0,0,0,0,0,0,0,0,0,0
</data>
 </layer>
 <layer id="19" name="camaras" width="41" height="30">
  <data encoding="csv">
0,0,0,0,0,0,0,0,0,0,0,0,0,0,0,0,0,0,0,0,0,0,0,0,0,0,0,0,0,0,0,0,0,0,0,0,0,0,0,0,0,
0,0,0,0,0,0,0,0,0,0,0,0,0,0,0,0,0,0,0,0,0,0,0,0,0,0,0,0,0,0,0,0,0,0,0,0,0,0,0,0,0,
0,0,0,0,0,0,0,0,0,0,0,0,0,0,0,0,0,0,0,0,0,0,0,0,0,0,0,0,0,0,0,0,0,0,0,0,0,0,0,0,0,
0,0,0,0,0,0,0,0,0,0,0,0,0,0,0,0,0,0,0,0,0,0,0,0,0,0,0,0,0,0,0,0,0,0,0,0,0,0,0,0,0,
0,0,0,0,0,0,0,0,0,0,0,0,0,0,0,0,0,0,0,0,0,0,0,0,0,0,0,0,0,0,0,0,0,0,0,0,0,0,0,0,0,
0,0,0,0,0,0,0,0,0,0,0,0,0,0,0,0,0,0,0,0,0,0,0,0,0,0,0,0,0,0,0,0,0,0,0,0,0,0,0,0,0,
0,0,0,0,0,0,0,0,0,0,0,0,0,0,0,0,0,0,0,0,0,0,0,0,0,0,0,0,0,0,0,0,0,0,0,0,0,0,0,0,0,
0,0,0,0,0,0,0,0,0,0,0,0,0,0,0,0,0,0,0,0,0,0,0,0,0,0,0,0,0,0,0,0,0,0,0,0,0,0,0,0,0,
0,0,0,0,0,0,0,0,0,0,0,8409,0,0,0,0,0,0,0,0,0,0,0,0,0,0,0,0,0,0,0,0,0,0,0,0,0,0,0,0,0,
0,0,0,0,0,0,0,0,0,0,0,0,0,0,0,0,0,0,0,0,0,0,0,0,0,0,0,0,0,0,0,0,0,0,0,0,0,0,0,0,0,
0,0,0,0,0,0,0,0,0,0,0,0,0,0,0,0,0,0,0,0,0,0,0,0,0,0,0,0,0,0,0,0,0,0,0,0,0,0,0,0,0,
0,0,0,0,0,0,0,0,0,0,0,0,0,0,0,0,0,0,0,0,0,0,0,0,0,0,0,0,0,0,0,0,0,0,0,0,0,0,0,0,0,
0,0,0,0,0,0,0,0,0,0,0,0,0,0,0,0,0,0,0,0,0,0,0,0,0,0,0,0,0,0,0,0,0,0,0,0,0,0,0,0,0,
0,0,0,0,0,0,0,0,0,0,0,0,0,0,0,0,0,0,0,0,0,0,0,0,0,0,0,0,0,0,0,0,0,0,0,0,0,0,0,0,0,
0,0,0,0,0,0,0,0,0,0,0,0,0,0,0,0,0,0,0,0,0,0,0,0,0,0,0,0,0,0,0,0,0,0,0,0,0,0,0,0,0,
0,0,0,0,0,0,0,0,0,0,0,0,0,0,0,0,0,0,0,0,0,0,0,0,0,0,0,0,0,0,0,0,0,0,0,0,0,0,0,0,0,
0,0,0,0,0,8409,0,0,0,0,0,0,0,0,0,0,0,0,0,0,0,0,0,0,0,0,0,0,0,0,0,0,0,0,0,0,0,0,0,0,0,
0,0,0,0,0,0,0,0,0,0,0,0,0,0,0,0,0,0,0,0,0,8409,0,0,0,0,0,0,0,0,0,0,0,0,0,0,0,0,0,0,0,
0,0,0,0,0,0,0,0,0,0,0,0,0,0,0,0,0,0,0,0,0,0,0,0,8453,0,0,0,0,0,0,0,0,0,0,0,0,0,0,0,0,
0,0,0,0,0,0,0,0,0,0,0,0,0,0,8409,0,0,0,0,0,0,0,0,0,0,0,0,0,0,0,0,0,0,0,0,0,0,0,0,0,0,
0,0,0,0,0,0,0,0,0,0,0,0,0,0,0,0,0,0,0,0,0,0,0,0,0,8453,0,0,0,0,0,0,0,0,0,0,0,0,0,0,0,
0,0,0,0,0,0,0,0,0,0,0,0,0,0,0,0,0,0,0,0,0,0,0,0,0,0,0,0,0,0,0,0,0,0,0,0,0,0,0,0,0,
0,0,0,0,0,0,0,0,0,0,0,0,0,0,0,0,0,0,0,0,0,0,0,0,0,0,0,0,0,0,0,0,0,0,0,0,0,0,0,0,0,
0,0,0,0,0,0,0,0,0,0,0,0,0,0,0,0,0,0,0,0,0,0,0,0,0,0,0,0,0,0,0,0,0,0,0,0,0,0,0,0,0,
0,0,0,0,0,0,0,0,0,0,0,0,0,0,0,0,0,0,0,0,0,0,0,0,0,0,0,0,0,0,0,0,0,0,0,0,0,0,0,0,0,
0,0,0,0,0,0,0,0,0,0,0,0,0,0,0,0,0,0,0,0,0,0,0,0,0,0,0,0,0,0,0,0,0,0,0,0,0,0,0,0,0,
0,0,0,0,0,0,0,0,0,0,0,0,0,0,0,0,0,0,0,0,0,0,0,0,0,0,0,0,0,0,0,0,0,0,0,0,0,0,0,0,0,
0,0,0,0,0,0,0,0,0,0,0,0,0,0,0,0,0,0,0,0,0,0,0,0,0,0,0,0,0,0,0,0,0,0,0,0,0,0,0,0,0,
0,0,0,0,0,0,0,0,0,0,0,0,0,0,0,0,0,0,0,0,0,0,0,0,0,0,0,0,0,0,0,0,0,0,0,0,0,0,0,0,0,
0,0,0,0,0,0,0,0,0,0,0,0,0,0,0,0,0,0,0,0,0,0,0,0,0,0,0,0,0,0,0,0,0,0,0,0,0,0,0,0,0
</data>
 </layer>
 <layer id="20" name="grieta" width="41" height="30">
  <data encoding="csv">
0,0,0,0,0,0,0,0,0,0,0,0,0,0,0,0,0,0,0,0,0,0,0,0,0,0,0,0,0,0,0,0,0,0,0,0,0,0,0,0,0,
0,0,0,0,0,0,0,0,0,0,0,0,0,0,0,0,0,0,0,0,0,0,0,0,0,0,0,0,0,0,0,0,0,0,0,0,0,0,0,0,0,
0,0,0,0,0,0,0,0,0,0,0,0,0,0,0,0,0,0,0,0,0,0,0,0,0,0,0,0,0,0,0,0,0,0,0,0,0,0,0,0,0,
0,0,0,0,0,0,0,0,0,0,0,0,0,0,0,0,0,0,0,0,0,0,0,0,0,0,0,0,0,0,0,0,0,0,0,0,0,0,0,0,0,
0,0,0,0,0,0,0,0,0,0,0,0,8454,8455,0,0,0,0,0,0,0,0,0,0,0,0,0,0,0,0,0,0,0,0,0,0,0,0,0,0,0,
0,0,0,0,0,0,0,0,0,0,0,0,8469,8470,0,0,0,0,0,0,0,0,0,0,0,0,0,0,0,0,0,0,0,0,0,0,0,0,0,0,0,
0,0,0,0,0,0,0,0,0,0,0,0,0,0,0,0,0,0,0,0,0,0,0,0,0,0,0,0,0,0,0,0,0,0,0,0,0,0,0,0,0,
0,0,0,0,0,0,0,0,0,0,0,0,0,0,0,0,0,0,0,0,0,0,0,0,0,0,0,0,0,0,0,0,0,0,0,0,0,0,0,0,0,
0,0,0,0,0,0,0,0,0,0,0,0,0,0,0,0,0,0,0,0,0,0,0,0,0,0,0,0,8454,8455,0,0,0,0,0,0,0,0,0,0,0,
0,0,0,0,0,0,0,0,0,0,0,0,0,0,0,0,0,0,0,0,0,0,0,0,0,0,0,0,8469,8470,0,0,0,0,0,0,0,0,0,0,0,
0,0,0,0,0,0,0,0,0,0,0,0,0,0,0,0,0,0,0,0,0,0,0,0,0,0,0,0,0,0,0,0,0,0,0,0,0,0,0,0,0,
0,0,0,0,0,0,0,0,0,0,0,0,0,0,0,0,0,0,0,0,0,0,0,0,0,0,0,0,0,0,0,0,0,0,0,0,0,0,0,0,0,
0,0,0,0,0,0,0,0,0,0,0,0,0,0,0,0,0,0,0,0,0,0,0,0,0,0,0,0,0,0,0,0,0,0,0,0,0,0,0,0,0,
0,0,0,0,0,0,0,0,0,8454,8455,0,0,0,0,0,0,0,0,0,0,0,0,0,0,0,0,0,0,0,0,0,0,0,0,0,0,0,0,0,0,
0,0,0,0,0,0,0,0,0,8469,8470,0,0,0,0,0,0,0,0,0,0,0,0,0,0,0,0,0,0,0,0,0,0,0,0,0,0,0,0,0,0,
0,0,0,0,0,0,0,0,0,0,0,0,0,0,0,0,0,0,0,0,0,0,0,0,0,0,0,0,0,0,0,0,0,0,0,0,0,0,0,0,0,
0,0,0,0,0,0,0,0,0,0,0,0,0,0,0,0,0,0,0,0,0,0,0,0,0,0,0,0,0,0,0,0,0,0,0,0,0,0,0,0,0,
0,0,0,0,0,0,0,0,0,0,0,0,0,0,0,0,0,0,0,0,0,0,0,0,0,0,0,0,0,0,0,0,0,0,8454,8455,0,0,0,0,0,
0,0,0,0,0,0,0,0,0,0,0,0,0,0,0,0,0,0,0,0,0,0,0,0,0,0,0,0,0,0,0,0,0,0,8469,8470,0,0,0,0,0,
0,0,0,0,0,0,0,0,0,0,0,0,0,0,0,0,0,0,0,0,0,0,0,0,0,0,0,0,0,0,0,0,0,0,0,0,0,0,0,0,0,
0,0,0,0,0,0,0,0,0,0,0,0,0,0,0,0,0,0,0,0,0,0,0,0,0,0,0,0,0,0,0,0,0,0,0,0,0,0,0,0,0,
0,8454,8455,0,0,0,0,0,0,0,0,0,0,0,0,0,0,0,0,0,0,0,0,0,0,0,0,0,0,0,0,0,0,0,0,0,0,0,0,0,0,
0,8469,8470,0,0,0,0,0,0,0,0,0,0,0,0,0,0,0,0,0,0,0,0,0,0,0,0,0,0,0,0,0,0,0,0,0,0,0,0,0,0,
0,0,0,0,0,0,0,0,0,0,0,0,0,0,0,0,0,0,0,0,0,0,0,0,0,0,0,0,0,0,0,0,0,0,0,0,0,0,0,0,0,
0,0,0,0,0,0,0,0,0,0,0,0,0,0,0,0,0,0,0,0,0,0,0,0,8454,8455,0,0,0,0,0,0,0,0,0,0,0,0,0,0,0,
0,0,0,0,0,0,0,0,0,0,0,0,0,0,0,0,0,0,0,0,0,0,0,0,8469,8470,0,0,0,0,0,0,0,0,0,0,0,0,0,0,0,
0,0,0,0,0,0,0,0,0,0,0,0,0,0,0,0,0,0,0,0,0,0,0,0,0,0,0,0,0,0,0,0,0,0,0,0,0,0,0,0,0,
0,0,0,0,0,0,0,0,0,0,0,0,0,0,0,0,0,0,0,0,0,0,0,0,0,0,0,0,0,0,0,0,0,0,0,0,0,0,0,0,0,
0,0,0,0,0,0,0,0,0,0,0,0,0,0,0,0,0,0,0,0,0,0,0,0,0,0,0,0,0,0,0,0,0,0,0,0,0,0,0,0,0,
0,0,0,0,0,0,0,0,0,0,0,0,0,0,0,0,0,0,0,0,0,0,0,0,0,0,0,0,0,0,0,0,0,0,0,0,0,0,0,0,0
</data>
 </layer>
 <objectgroup id="17" name="Colisiones">
  <object id="1" type="pared" x="449" y="303.333" width="126.333" height="32.6667"/>
  <object id="2" type="pared" x="640" y="304.333" width="127.333" height="30.6667"/>
  <object id="3" type="pared" x="763.667" y="305.333" width="3.66667" height="194.333"/>
  <object id="4" type="pared" x="671.667" y="496.333" width="96.3333" height="31.3333"/>
  <object id="5" type="pared" x="448" y="496.333" width="97" height="31.3333"/>
  <object id="6" type="pared" x="544" y="560.667" width="127.667" height="31.6667"/>
  <object id="7" type="pared" x="448.667" y="304" width="3.33333" height="198.667"/>
  <object id="8" type="pared" x="96" y="463.667" width="128.667" height="32.6667"/>
  <object id="9" type="pared" x="318.667" y="463.667" width="33.3333" height="32.6667"/>
  <object id="10" type="pared" x="96.6667" y="336" width="32" height="31.3333"/>
  <object id="11" type="pared" x="191.333" y="336" width="159" height="31"/>
  <object id="13" type="pared" x="346" y="337.333" width="5.66667" height="130.333"/>
  <object id="14" type="pared" x="96.6667" y="339" width="3.33333" height="137.667"/>
  <object id="15" type="pared" x="95.3333" y="271.667" width="33.6667" height="32.3333"/>
  <object id="16" type="pared" x="192" y="272.333" width="160.333" height="31.3333"/>
  <object id="17" type="pared" x="96.3333" y="143.667" width="253.667" height="33"/>
  <object id="18" type="pared" x="97" y="144.333" width="4.66667" height="154"/>
  <object id="19" type="pared" x="347" y="146" width="5.33333" height="75.6667"/>
  <object id="20" type="pared" x="928.667" y="208.333" width="190.667" height="32.3333"/>
  <object id="21" type="pared" x="928.667" y="79" width="190" height="29.6667"/>
  <object id="22" type="pared" x="1115.33" y="101" width="3.66667" height="121.667"/>
  <object id="23" type="pared" x="929.333" y="80" width="4.33333" height="81"/>
  <object id="24" type="pared" x="992.667" y="463.333" width="285" height="33.6667"/>
  <object id="25" type="pared" x="1275" y="463.333" width="3.33333" height="133.333"/>
  <object id="26" type="pared" x="992" y="591.333" width="289" height="32"/>
  <object id="27" type="pared" x="993.333" y="463.667" width="3.66667" height="66.3333"/>
  <object id="28" type="pared" x="992" y="527.333" width="31.6667" height="31.6667"/>
  <object id="29" type="pared" x="671.333" y="815.667" width="160.333" height="33.3333"/>
  <object id="30" type="pared" x="543.667" y="816.333" width="63.3333" height="32.3333"/>
  <object id="31" type="pared" x="671.333" y="719.667" width="161" height="32"/>
  <object id="32" type="pared" x="827.333" y="722.333" width="5.66667" height="102"/>
  <object id="34" type="pared" x="640" y="688" width="31.3333" height="31.6667"/>
  <object id="36" type="pared" x="667" y="705" width="6" height="47"/>
  <object id="37" type="pared" x="544" y="687.333" width="32" height="32.6667"/>
  <object id="38" type="pared" x="544.333" y="691.667" width="5.66667" height="124.333"/>
  <object id="45" type="pared" x="31.6667" y="719.667" width="129" height="32.6667"/>
  <object id="46" type="pared" x="32" y="527.667" width="128" height="32.3333"/>
  <object id="47" type="pared" x="31.6667" y="529.333" width="5" height="194.333"/>
  <object id="48" type="pared" x="155" y="592" width="5.33333" height="138.333"/>
  <object id="50" type="objeto" x="224.875" y="342.375" width="93.25" height="56.5"/>
  <object id="51" type="objeto" x="100.875" y="439.125">
   <polygon points="0,0 21.875,0.25 21.5,-23.75 41.875,-23.5 42.125,-7 58.25,-6.75 58.625,0.375 83.75,-11 90.5,-11 91.25,24.625 -0.875,24.375"/>
  </object>
  <object id="53" type="objeto" x="223.375" y="161.375" width="129.25" height="61.125"/>
  <object id="54" type="objeto" x="97.75" y="168.75" width="67.875" height="68.875"/>
  <object id="55" type="objeto" x="993.091" y="108.545" width="94" height="40.5455"/>
  <object id="57" type="objeto" x="1065.27" y="142.727" width="50" height="65.2727"/>
  <object id="58" type="objeto" x="997.455" y="478.182" width="40" height="60.1818"/>
  <object id="60" type="objeto" x="1224.18" y="481.636" width="32.5455" height="46.7273"/>
  <object id="61" type="objeto" x="1223.64" y="543.091" width="32.3636" height="48.9091"/>
  <object id="62" type="objeto" x="1160.18" y="543.636" width="32" height="50.7273"/>
  <object id="63" type="objeto" x="1159.82" y="481.273" width="32.1818" height="46.5455"/>
  <object id="64" type="objeto" x="1095.82" y="482.182" width="33.0909" height="45.8182"/>
  <object id="71" type="objeto" x="95.2727" y="663.818">
   <polygon points="0,0 22.3636,0.181818 22.1818,-25.2727 59.8182,-24.3636 60,55.2727 0.363636,55.8182"/>
  </object>
  <object id="72" type="objeto" x="64.7273" y="599.091">
   <polygon points="0,0 -28,-0.363636 -27.8182,-65.4545 39.2727,-65.6364 38.7273,-1.63636"/>
  </object>
  <object id="73" type="objeto" x="559.25" y="362" width="101" height="63.25"/>
  <object id="74" type="objeto" x="666.5" y="359.5" width="45.25" height="45.5"/>
  <object id="75" type="objeto" x="631.75" y="422.5" width="48.25" height="46"/>
  <object id="76" type="objeto" x="538.75" y="423.5" width="43.75" height="44.5"/>
  <object id="77" type="objeto" x="506" y="359.25" width="45.5" height="44.75"/>
  <object id="78" type="objeto" x="557.333" y="245.667">
   <polygon points="0,0 99.6667,0.333333 129.667,-28.3333 135,-35.3333 164.667,-35.6667 164.333,-67.6667 168,-66.6667 168,-102.333 137.667,-101.667 137.667,-106 128,-105.667 132.667,-105.667 130.667,-106 130.333,-157.667 168,-156.667 168.333,-164.667 96,-240 7.66667,-241 -69.6667,-166.333 -69.3333,-157.667 -68.6667,-155.333 -31.3333,-155 -32,-105.667 -43.6667,-105.667 -43,-101.667 -66.6667,-101.667 -70.3333,-101.667 -69.3333,-68.3333 -63.6667,-65.6667 -63.6667,-37 -63.6667,-35.6667 -34.3333,-35 -31.6667,-28"/>
  </object>
  <object id="79" type="objeto" x="226.5" y="276" width="124" height="58.5"/>
  <object id="85" type="pared" x="925" y="598">
   <polygon points="0,0 -37.25,81.25 -36,105 -35.25,122 -22.75,115.25 -0.5,111.25 28.25,112 40.25,104.25 4,-1.5"/>
  </object>
  <object id="93" type="pared" x="97" y="943" width="930" height="19"/>
  <object id="104" type="pared" x="-5" y="506" width="34" height="468"/>
  <object id="110" type="pared" x="1052" y="77">
   <polygon points="0,0 78,2 70,5 70,10 67,150 -69,322 -58,389 254,386 257,-84 -177,-74 -176,3"/>
  </object>
  <object id="112" type="pared" x="926" y="103">
   <polygon points="0,0 -239,3 -579,2 -580,39 -829,39 -831,-104 -3,-100"/>
  </object>
  <object id="114" type="pared" x="0" y="-1" width="97" height="531"/>
  <object id="115" type="pared" x="-5" y="748" width="197" height="213"/>
  <object id="116" type="pared" x="705" y="852">
   <polygon points="0,0 -1,115 605,106 607,-229 289,-230 259,-149 127,-148 126,-3"/>
  </object>
  <object id="118" type="pared" x="925" y="600">
   <polygon points="0,0 -158,10 -251,119.5 -92.5,120 -6,94.5"/>
  </object>
  <object id="120" type="pared" x="993.25" y="511.75">
   <polygon points="0,0 -129,0.5 -129,-192.5 -32.25,-191.5 -33.75,-273 7.75,-270.75"/>
  </object>
  <object id="121" type="pared" x="924.667" y="599.333" width="72.6667" height="106"/>
  <object id="124" type="pared" x="192.5" y="783" width="68" height="170"/>
  <object id="125" type="pared" x="157" y="621" width="36" height="131"/>
  <object id="127" type="pared" x="446.5" y="687" width="96" height="95"/>
  <object id="128" type="pared" x="336.364" y="122.727" width="9.81818" height="21.4545"/>
  <object id="129" type="pared" x="192.25" y="621.25" width="31.75" height="34.5"/>
  <object id="130" type="pared" x="192" y="753" width="96.5" height="31.5"/>
  <object id="131" type="pared" x="351.5" y="752" width="96" height="32.75"/>
  <object id="132" type="pared" x="442.5" y="624" width="4" height="136"/>
  <object id="133" type="pared" x="287.75" y="624" width="158.75" height="32.75"/>
  <object id="134" type="objeto" x="320.75" y="627.75" width="88.5" height="59.75"/>
  <object id="135" type="objeto" x="384.25" y="705.25">
   <polygon points="0,0 -28.25,15.25 -32.5,24.5 -32.5,30 -10.75,45.25 7.5,46.75 35.5,31.5 36,17.5 4.5,-0.75"/>
  </object>
  <object id="136" type="objeto" x="258" y="704.75">
   <polygon points="0,0 -4.75,-0.25 -35.5,20.5 -34.75,32.5 -11.25,48 6.75,48 33.5,31 34,19.5"/>
  </object>
  <object id="137" type="objeto" x="706.5" y="738" width="55.5" height="42"/>
  <object id="138" type="objeto" x="547.5" y="767" width="59" height="53"/>
 </objectgroup>
</map>
