<?xml version="1.0" encoding="UTF-8"?>
<map version="1.10" tiledversion="1.11.2" orientation="orthogonal" renderorder="right-down" width="31" height="30" tilewidth="32" tileheight="32" infinite="0" nextlayerid="22" nextobjectid="242">
 <tileset firstgid="1" name="suelo" tilewidth="32" tileheight="32" tilecount="35" columns="7">
  <image source="../textures/suelo.png" width="240" height="176"/>
 </tileset>
 <tileset firstgid="36" name="piso" tilewidth="32" tileheight="32" spacing="2" margin="2" tilecount="49" columns="7">
  <image source="../textures/piso.png" width="256" height="256"/>
 </tileset>
 <tileset firstgid="85" name="piso2" tilewidth="32" tileheight="32" spacing="2" margin="2" tilecount="49" columns="7">
  <image source="../textures/piso2.png" width="256" height="256"/>
 </tileset>
 <tileset firstgid="134" name="detallitos" tilewidth="32" tileheight="32" spacing="2" margin="2" tilecount="49" columns="7">
  <image source="../textures/detallitos.png" width="256" height="256"/>
 </tileset>
 <tileset firstgid="183" name="disenito" tilewidth="32" tileheight="32" spacing="2" margin="2" tilecount="49" columns="7">
  <image source="../textures/disenito.png" width="256" height="256"/>
 </tileset>
 <tileset firstgid="232" name="dibujito" tilewidth="32" tileheight="32" spacing="2" margin="2" tilecount="49" columns="7">
  <image source="../textures/dibujito.png" width="256" height="256"/>
 </tileset>
 <tileset firstgid="281" name="Cielo" tilewidth="32" tileheight="32" tilecount="64" columns="8">
  <image source="../textures/Cielo.png" width="256" height="256"/>
 </tileset>
 <tileset firstgid="345" name="mesa" tilewidth="32" tileheight="32" spacing="2" margin="2" tilecount="49" columns="7">
  <image source="../textures/mesa.png" width="256" height="256"/>
 </tileset>
 <tileset firstgid="394" name="mesa1" tilewidth="32" tileheight="32" spacing="2" margin="2" tilecount="49" columns="7">
  <image source="../textures/mesa1.png" width="256" height="256"/>
 </tileset>
 <tileset firstgid="443" name="muebles" tilewidth="32" tileheight="32" spacing="3" margin="3" tilecount="180" columns="15">
  <image source="../textures/PostApoc_Workshop.png" width="544" height="448"/>
 </tileset>
 <tileset firstgid="623" name="estantes" tilewidth="32" tileheight="32" spacing="2" margin="2" tilecount="208" columns="16">
  <image source="../textures/estantes.png" width="544" height="448"/>
 </tileset>
 <tileset firstgid="831" name="estantes2" tilewidth="32" tileheight="32" spacing="2" margin="2" tilecount="208" columns="16">
  <image source="../textures/estantes2.png" width="544" height="448"/>
 </tileset>
 <tileset firstgid="1039" name="mesaposiones3" tilewidth="32" tileheight="32" spacing="2" margin="2" tilecount="49" columns="7">
  <image source="../textures/mesaposiones3.png" width="256" height="256"/>
 </tileset>
 <tileset firstgid="1088" name="planeta" tilewidth="32" tileheight="32" spacing="2" margin="2" tilecount="49" columns="7">
  <image source="../textures/planeta.png" width="256" height="256"/>
 </tileset>
 <tileset firstgid="1137" name="tanque" tilewidth="32" tileheight="32" spacing="2" margin="2" tilecount="49" columns="7">
  <image source="../textures/tanque.png" width="256" height="256"/>
 </tileset>
 <tileset firstgid="1186" name="tanque1" tilewidth="32" tileheight="32" spacing="2" margin="2" tilecount="49" columns="7">
  <image source="../textures/tanque1.png" width="256" height="256"/>
 </tileset>
 <tileset firstgid="1235" name="reactor" tilewidth="32" tileheight="32" spacing="2" margin="2" tilecount="264" columns="11">
  <image source="../textures/Reactor_bueno1.png" width="382" height="848"/>
 </tileset>
 <tileset firstgid="1499" name="mesa_h2" tilewidth="32" tileheight="32" spacing="2" margin="2" tilecount="900" columns="30">
  <image source="../textures/Mesa_Holografica_mas_pequena.png" width="1024" height="1024"/>
 </tileset>
 <tileset firstgid="2399" name="mesa_cam1" tilewidth="32" tileheight="32" spacing="2" margin="2" tilecount="475" columns="19">
  <image source="../textures/Mesa_de_camaras1.png" width="677" height="871"/>
 </tileset>
 <tileset firstgid="2874" name="mesa_cam2" tilewidth="32" tileheight="32" spacing="2" margin="2" tilecount="475" columns="19">
  <image source="../textures/Mesa_de_camaras2.png" width="677" height="871"/>
 </tileset>
 <tileset firstgid="3349" name="plataforma1" tilewidth="32" tileheight="32" spacing="2" margin="2" tilecount="49" columns="7">
  <image source="../textures/plataforma1.png" width="256" height="256"/>
 </tileset>
 <tileset firstgid="3398" name="mesa_h3" tilewidth="32" tileheight="32" spacing="2" margin="2" tilecount="900" columns="30">
  <image source="../textures/Mesa_Holografica_mas_pequena2.png" width="1024" height="1024"/>
 </tileset>
 <tileset firstgid="4298" name="mesita" tilewidth="32" tileheight="32" spacing="2" margin="2" tilecount="900" columns="30">
  <image source="../textures/mesita.png" width="1024" height="1024"/>
 </tileset>
 <tileset firstgid="5198" name="estrellas" tilewidth="32" tileheight="32" spacing="2" margin="2" tilecount="225" columns="15">
  <image source="../textures/estrellas.png" width="512" height="512"/>
 </tileset>
 <tileset firstgid="5423" name="cancha1" tilewidth="32" tileheight="32" spacing="2" margin="2" tilecount="49" columns="7">
  <image source="../textures/cancha1.png" width="256" height="256"/>
 </tileset>
 <tileset firstgid="5472" name="futbol2" tilewidth="32" tileheight="32" spacing="2" margin="2" tilecount="49" columns="7">
  <image source="../textures/futbol2.png" width="256" height="256"/>
 </tileset>
 <tileset firstgid="5521" name="pared3" tilewidth="32" tileheight="32" spacing="2" margin="2" tilecount="49" columns="7">
  <image source="../textures/pared3.png" width="256" height="256"/>
 </tileset>
 <tileset firstgid="5570" name="grieta" tilewidth="32" tileheight="32" tilecount="225" columns="15">
  <image source="../textures/grieta.png" width="500" height="500"/>
 </tileset>
 <tileset firstgid="5795" name="camaritaApagada" tilewidth="32" tileheight="32" spacing="2" margin="2" tilecount="49" columns="7">
  <image source="../textures/camaritaApagada.png" width="256" height="256"/>
 </tileset>
 <tileset firstgid="5844" name="boton" tilewidth="32" tileheight="32" spacing="2" margin="2" tilecount="810" columns="30">
  <image source="../textures/boton.png" width="1024" height="934"/>
 </tileset>
 <layer id="11" name="fondo1" width="31" height="30">
  <data encoding="csv">
337,281,282,283,284,285,286,287,288,281,281,282,281,282,283,284,285,286,287,288,288,288,281,281,281,282,283,284,285,286,287,
340,289,290,291,292,293,294,295,296,289,289,281,289,290,291,292,293,294,295,296,296,296,289,289,281,282,283,284,285,286,287,
281,297,298,299,300,301,302,303,304,297,297,281,297,298,299,300,301,302,303,304,304,281,281,282,283,284,285,286,287,288,286,
289,305,306,307,308,309,310,311,312,305,305,281,305,306,307,308,309,310,311,312,312,289,289,290,291,292,293,294,295,296,286,
297,313,314,315,316,317,318,319,320,313,281,282,313,314,315,316,317,318,319,320,320,297,297,298,299,300,301,302,303,304,285,
305,321,322,323,324,325,326,327,328,281,282,283,321,322,323,324,325,326,327,328,281,305,305,306,307,308,309,310,311,312,285,
313,329,330,331,332,333,334,335,336,282,283,284,329,330,331,332,333,334,335,336,289,313,313,314,315,316,317,318,319,320,285,
321,337,338,339,340,341,342,343,344,282,283,284,337,338,339,340,341,342,343,344,297,321,321,322,323,324,325,326,327,328,284,
329,337,338,339,340,341,342,343,281,282,271,284,285,286,287,288,312,320,328,344,305,329,329,330,331,332,333,334,335,336,284,
337,338,339,340,341,342,343,344,281,282,283,284,285,286,287,288,320,328,336,282,313,337,337,338,339,340,341,342,343,344,284,
338,339,340,341,342,343,344,281,282,283,284,285,286,287,288,296,328,336,344,281,321,337,338,339,340,337,313,281,282,283,284,
339,340,341,342,343,344,304,281,282,283,284,285,286,287,288,304,336,344,281,289,329,337,338,339,340,341,321,281,282,283,284,
339,340,341,342,343,344,282,281,282,283,284,285,281,282,283,284,285,286,287,288,288,288,339,340,341,342,329,281,282,283,284,
340,341,342,343,344,282,281,282,283,284,285,286,287,288,288,288,288,286,287,288,296,296,288,340,341,342,337,281,282,283,284,
340,341,342,343,344,284,289,290,291,292,293,294,295,296,296,296,296,288,288,296,304,304,296,288,341,342,343,281,282,283,284,
341,342,343,344,284,285,297,298,299,300,301,302,303,304,304,304,304,296,288,288,288,312,304,296,288,342,343,281,282,283,284,
341,342,343,281,281,281,281,281,281,282,283,284,285,286,287,288,312,304,296,296,296,288,312,304,296,342,281,282,283,284,285,
342,281,281,289,289,289,289,289,289,281,281,281,282,283,284,285,286,287,281,282,283,284,285,286,287,288,281,282,283,284,285,
281,289,289,297,297,297,297,297,297,289,289,289,281,281,282,283,284,285,286,287,288,288,288,288,288,296,288,288,285,286,287,
289,297,297,305,305,305,305,305,305,297,297,281,282,283,284,285,286,281,281,281,281,281,281,281,282,283,284,285,286,287,288,
297,305,305,313,313,313,313,313,313,305,281,282,283,284,285,286,281,289,289,289,289,289,289,281,281,282,283,284,285,286,287,
305,313,313,321,321,321,321,321,321,281,282,283,284,285,286,287,289,297,281,281,281,282,283,284,285,286,287,288,284,285,286,
313,321,321,329,329,329,329,329,281,282,283,284,285,286,287,281,297,281,289,289,289,281,281,282,283,284,285,286,287,288,285,
321,329,329,337,337,337,337,281,282,283,284,285,286,287,288,289,281,289,297,297,297,289,281,282,283,284,285,286,287,288,285,
329,337,337,338,339,340,341,281,282,283,284,285,286,287,281,281,289,297,305,305,305,297,289,281,282,283,284,285,286,287,288,
337,338,339,340,341,342,343,281,282,283,284,285,286,287,289,289,297,305,313,313,313,305,297,289,281,282,283,284,285,286,287,
338,339,340,341,342,343,344,281,281,282,283,284,285,286,297,297,305,313,321,321,321,313,305,297,281,282,283,284,285,286,287,
339,340,341,342,343,344,312,289,281,281,281,281,281,281,305,305,313,321,329,329,329,321,313,281,282,283,284,285,286,287,288,
340,341,342,343,344,320,320,297,289,289,289,289,289,289,313,313,321,329,337,337,337,329,321,281,282,283,284,285,286,287,288,
341,342,343,344,336,328,328,305,297,297,297,297,297,297,321,321,329,337,338,339,340,337,329,289,290,291,292,293,294,295,296
</data>
 </layer>
 <layer id="9" name="fondo" width="31" height="30">
  <data encoding="csv">
0,0,0,0,0,0,0,0,0,0,0,0,0,0,0,0,0,0,0,0,0,0,0,0,0,0,0,0,0,0,0,
0,0,0,0,0,0,0,0,0,0,0,0,0,0,0,0,0,0,0,0,0,0,0,0,0,0,0,0,0,0,0,
0,0,0,0,0,0,0,0,0,0,0,0,0,0,0,0,0,0,0,0,0,0,0,0,0,0,0,0,0,0,0,
0,0,0,0,0,0,0,0,0,0,0,0,0,0,0,0,0,0,0,0,0,0,0,0,0,0,0,0,0,0,0,
0,0,0,0,0,0,0,0,0,0,0,0,0,0,0,0,0,0,0,0,0,0,0,0,0,0,0,0,0,0,0,
0,0,0,0,0,0,0,0,0,0,0,0,0,0,0,0,0,0,0,0,0,0,0,0,0,0,0,0,0,0,0,
0,0,0,0,0,0,0,0,0,0,0,0,0,0,0,0,0,0,0,0,0,0,0,0,0,0,0,0,0,0,0,
0,0,0,0,0,0,0,0,0,0,0,0,0,0,0,0,0,0,0,0,0,0,0,0,0,0,0,0,0,0,0,
0,0,0,0,0,0,0,0,0,0,0,0,0,0,0,0,0,0,0,0,0,0,0,0,0,0,0,0,0,0,0,
0,0,0,0,0,141,141,141,141,141,141,141,141,141,0,141,141,141,141,141,141,141,0,0,0,0,0,0,0,0,0,
0,0,0,0,0,141,141,141,141,141,141,141,141,141,141,141,0,141,141,141,141,141,141,141,141,0,0,0,0,0,0,
0,0,0,0,0,0,141,141,141,141,141,141,0,0,0,0,0,0,0,141,141,141,141,141,141,141,0,0,0,0,0,
0,0,0,0,0,0,0,43,141,141,0,141,0,0,0,0,0,0,0,141,141,141,141,141,141,141,0,0,0,0,0,
0,0,0,0,0,0,0,0,43,43,0,0,0,0,0,0,0,0,0,0,43,43,43,43,43,43,0,0,0,0,0,
0,0,0,0,0,0,0,0,0,0,0,0,0,0,0,0,0,0,0,0,0,0,0,0,0,0,0,0,0,0,0,
0,0,0,0,0,0,0,0,0,0,0,0,0,0,0,0,0,0,0,0,0,0,0,0,0,0,0,0,0,0,0,
0,0,0,0,0,0,141,141,141,141,141,0,0,0,0,0,0,0,0,141,0,0,0,141,141,0,0,0,0,0,0,
0,0,0,0,0,0,141,141,141,141,141,0,0,0,0,0,0,0,0,0,0,0,0,0,0,0,0,0,0,0,0,
0,0,0,0,0,0,0,0,0,0,0,0,0,0,0,0,0,0,0,0,0,0,0,0,0,0,0,0,0,0,0,
0,0,0,0,0,0,0,0,0,0,0,0,0,0,0,0,0,0,0,0,0,0,0,0,0,0,0,0,0,0,0,
0,0,0,0,0,0,0,0,0,0,0,0,0,0,0,0,0,0,0,0,0,0,0,0,0,0,0,0,0,0,0,
0,0,0,0,0,0,0,0,0,0,0,0,0,0,0,0,0,0,0,0,0,0,0,0,0,0,0,0,0,0,0,
0,0,0,0,0,0,0,0,0,0,0,0,0,0,0,0,0,0,0,0,0,0,0,0,0,0,0,0,0,0,0,
0,0,0,0,0,0,0,0,0,0,0,0,0,0,0,0,0,0,0,0,0,0,0,0,0,0,0,0,0,0,0,
0,0,0,0,0,0,0,0,0,0,0,0,0,0,0,0,0,0,0,0,0,0,0,0,0,0,0,0,0,0,0,
0,0,0,0,0,0,0,0,0,0,0,0,0,0,0,0,0,0,0,0,0,0,0,0,0,0,0,0,0,0,0,
0,0,0,0,0,0,0,0,0,0,0,0,0,0,0,0,0,0,0,0,0,0,0,0,0,0,0,0,0,0,0,
0,0,0,0,0,0,0,0,0,0,0,0,0,0,0,0,0,0,0,0,0,0,0,0,0,0,0,0,0,0,0,
0,0,0,0,0,0,0,0,0,0,0,0,0,0,0,0,0,0,0,0,0,0,0,0,0,0,0,0,0,0,0,
0,0,0,0,0,0,0,0,0,0,0,0,0,0,0,0,0,0,0,0,0,0,0,0,0,0,0,0,0,0,0
</data>
 </layer>
 <layer id="6" name="piso" width="31" height="30">
  <data encoding="csv">
0,0,0,0,0,0,0,0,0,0,0,0,0,0,0,0,0,0,0,0,0,0,0,0,0,0,0,0,0,0,0,
0,0,0,0,0,0,0,0,0,0,0,0,0,0,0,0,0,0,0,0,0,0,0,0,0,0,0,0,0,0,0,
0,0,0,0,0,0,0,0,0,0,0,0,0,0,0,0,0,0,0,0,0,0,0,0,0,0,0,0,0,0,0,
0,0,0,0,0,0,0,0,0,0,0,0,0,0,0,0,0,0,0,0,0,0,0,0,0,0,0,0,0,0,0,
0,0,0,0,0,0,0,0,0,90,90,90,90,90,90,90,90,90,90,90,90,0,0,0,0,0,0,0,0,0,0,
0,0,0,0,0,0,0,0,0,90,90,90,90,90,90,90,90,90,90,90,90,0,0,0,0,0,0,0,0,0,0,
0,0,0,0,0,0,0,0,0,90,90,90,90,90,90,90,90,90,90,90,90,0,0,0,0,0,0,0,0,0,0,
0,0,0,0,0,0,0,0,0,90,90,90,90,90,90,90,90,90,90,90,90,0,0,0,0,0,0,0,0,0,0,
0,0,0,0,0,0,0,0,0,90,90,90,90,90,90,90,90,90,90,90,90,0,0,0,0,0,0,0,0,0,0,
0,0,0,0,0,0,0,0,0,0,0,0,0,0,0,0,0,0,0,0,0,0,0,0,0,0,0,0,0,0,0,
0,0,0,0,0,0,0,0,0,0,0,0,0,0,0,0,0,0,0,0,0,0,0,0,0,0,0,0,0,0,0,
0,88,88,88,88,88,0,0,0,0,0,42,42,42,23,24,42,42,42,0,0,0,0,0,0,0,40,40,40,40,0,
0,88,88,88,88,88,88,0,0,0,0,42,42,42,42,42,42,42,42,0,0,0,0,0,0,0,40,40,40,40,0,
0,88,88,88,88,88,88,88,0,0,0,42,42,42,42,42,42,42,42,0,0,0,0,0,0,0,40,40,40,40,0,
0,88,88,88,88,88,88,88,0,0,29,42,42,42,42,42,42,42,42,29,0,0,37,37,86,40,40,40,40,40,0,
0,88,88,88,88,88,88,88,0,86,86,42,42,42,42,42,42,42,42,33,86,86,86,86,86,40,40,40,40,40,0,
0,88,88,88,88,88,0,0,0,0,42,42,42,42,42,42,42,42,42,0,0,86,86,0,0,40,40,40,40,40,0,
0,88,88,88,88,88,0,0,0,0,42,42,42,42,42,42,42,42,42,0,0,86,86,0,0,40,40,40,40,40,0,
0,0,0,0,0,0,0,0,0,45,44,45,44,45,0,33,44,45,44,45,44,0,0,0,0,0,0,0,0,0,0,
0,0,0,0,0,0,0,0,0,0,0,0,0,0,0,0,0,0,0,0,0,0,0,0,0,0,0,0,0,0,0,
0,0,0,0,0,0,0,0,0,0,0,0,0,0,0,0,0,0,0,0,0,0,0,0,0,0,0,0,0,0,0,
0,0,0,0,0,0,0,0,0,0,0,0,0,0,0,0,0,0,0,0,0,0,0,0,0,0,0,0,0,0,0,
0,0,85,85,85,85,86,86,86,0,0,136,136,136,136,136,136,136,136,0,0,0,0,235,235,235,233,0,0,0,0,
0,0,85,85,85,85,86,86,86,0,0,136,136,136,136,136,136,136,136,0,0,0,0,235,235,235,235,0,0,0,0,
0,0,0,85,85,85,85,0,0,0,0,136,136,136,136,136,136,136,136,0,0,0,0,235,235,235,235,0,0,0,0,
0,0,0,0,85,85,85,85,0,0,0,136,136,136,136,136,136,136,136,0,0,0,0,235,235,235,235,0,0,0,0,
0,0,0,0,0,85,85,85,85,0,0,136,136,136,136,136,136,136,136,0,0,0,0,233,235,235,235,0,0,0,0,
0,0,0,0,0,0,85,85,85,0,0,136,136,136,136,136,136,136,136,0,0,0,0,0,0,0,0,0,0,0,0,
0,0,0,0,0,0,0,0,0,0,0,136,136,136,136,136,136,136,136,0,0,0,0,0,0,0,0,0,0,0,0,
0,0,0,0,0,0,0,0,0,0,0,0,0,0,0,0,0,0,0,0,0,0,0,0,0,0,0,0,0,0,0
</data>
 </layer>
 <layer id="1" name="piso1" width="31" height="30">
  <data encoding="csv">
0,0,0,0,0,0,0,0,0,0,0,0,0,0,0,0,0,0,0,0,0,0,0,0,0,0,0,0,0,0,0,
0,0,0,0,0,0,0,0,0,0,0,0,0,0,0,0,0,0,0,0,0,0,0,0,0,0,0,0,0,0,0,
0,0,0,0,0,0,0,0,0,0,0,0,0,0,0,0,0,0,0,0,0,0,0,0,0,0,0,0,0,0,0,
0,0,0,0,0,0,0,0,0,0,0,0,0,0,0,0,0,0,0,0,0,0,0,0,0,0,0,0,0,0,0,
0,0,0,0,0,0,0,0,0,0,0,0,0,0,0,0,0,0,0,0,0,0,0,0,0,0,0,0,0,0,0,
0,0,0,0,0,0,0,0,0,0,0,0,0,0,0,0,0,0,0,0,0,0,0,0,0,0,0,0,0,0,0,
0,0,0,0,0,0,0,0,0,0,0,0,0,0,0,0,0,0,0,0,0,0,0,0,0,0,0,0,0,0,0,
0,0,0,86,86,86,86,86,86,0,0,0,0,0,0,0,0,0,0,0,0,0,0,0,0,0,0,0,0,0,0,
0,0,0,86,86,86,86,86,86,0,0,0,0,0,0,0,0,0,0,0,0,0,0,0,0,0,0,0,0,0,0,
0,0,0,86,86,0,0,0,0,0,0,0,0,33,29,33,33,0,0,0,0,0,0,0,0,0,0,0,0,0,0,
0,0,0,86,86,0,0,0,0,0,0,0,0,33,29,33,33,0,0,0,0,0,0,0,0,0,0,0,0,0,0,
0,0,0,0,0,0,0,0,0,0,0,0,0,0,0,25,0,0,0,0,0,0,0,0,0,0,0,0,0,0,0,
0,0,0,0,0,0,0,0,0,0,0,0,0,0,0,0,0,0,0,0,0,0,0,0,0,0,0,0,0,0,0,
0,0,0,0,0,0,0,0,0,0,0,0,0,0,0,0,0,0,0,37,0,0,0,0,0,0,0,0,0,0,0,
0,0,0,0,0,0,0,0,37,37,33,0,0,0,0,0,0,0,0,33,37,37,37,0,0,0,0,0,0,0,0,
0,0,0,0,0,0,0,0,37,0,33,0,0,0,0,0,0,0,0,33,37,0,0,0,0,0,0,0,0,0,0,
0,0,0,0,0,0,0,0,0,0,0,0,0,0,0,0,0,0,0,0,0,0,0,0,0,0,0,0,0,0,0,
0,0,0,0,0,0,0,0,0,0,0,0,0,0,0,0,0,0,0,0,0,0,0,0,0,0,0,0,0,0,0,
0,0,0,35,86,37,37,37,37,0,0,0,0,0,16,0,0,0,0,0,0,37,37,37,37,0,0,0,0,0,0,
0,0,0,0,86,37,37,37,37,37,37,37,37,37,37,37,37,37,37,37,37,37,37,37,37,0,0,0,0,0,0,
0,0,0,0,86,37,37,37,37,37,37,37,37,37,37,37,37,37,37,37,37,37,37,37,37,0,0,0,0,0,0,
0,0,0,0,0,0,0,37,37,0,0,0,0,0,37,37,0,0,0,0,0,0,0,37,37,0,0,0,0,0,0,
0,0,0,0,0,0,0,0,0,0,0,0,0,0,0,0,0,0,0,0,0,0,0,3221225713,1073742065,0,235,0,0,0,0,
0,0,0,0,0,0,0,0,0,0,0,0,0,0,0,0,0,0,0,0,0,0,0,0,0,0,0,0,0,0,0,
0,0,0,0,0,0,0,0,0,0,0,0,0,0,0,0,0,0,0,0,0,0,0,0,0,0,0,0,0,0,0,
0,0,0,0,0,0,0,0,0,0,0,0,0,0,0,0,0,0,0,0,0,0,0,0,0,0,0,0,0,0,0,
0,0,0,0,0,0,0,0,0,0,0,0,0,0,0,0,0,0,0,0,0,0,0,30,0,0,0,0,0,0,0,
0,0,0,0,0,0,0,0,0,0,0,0,0,0,0,0,0,0,0,0,0,0,0,0,0,0,0,0,0,0,0,
0,0,0,0,0,0,0,0,0,0,0,0,0,0,0,0,0,0,0,0,0,0,0,0,0,0,0,0,0,0,0,
0,0,0,0,0,0,0,0,0,0,0,0,0,0,0,0,0,0,0,0,0,0,0,0,0,0,0,0,0,0,0
</data>
 </layer>
 <layer id="2" name="izquierda" width="31" height="30">
  <data encoding="csv">
0,0,0,0,0,0,0,0,0,0,0,0,0,0,0,0,0,0,0,0,0,0,0,0,0,0,0,0,0,0,0,
0,0,0,0,0,0,0,0,0,0,0,0,0,0,0,0,0,0,0,0,0,0,0,0,0,0,0,0,0,0,0,
0,0,0,0,0,0,0,0,0,0,0,0,0,0,0,0,0,0,0,0,0,0,0,0,0,0,0,0,0,0,0,
0,0,0,0,0,0,0,0,0,0,0,0,0,0,0,0,0,0,0,0,0,0,0,0,0,0,0,0,0,0,0,
0,0,0,0,0,0,0,0,0,0,0,0,0,0,0,0,0,0,0,0,0,0,0,0,0,0,0,0,0,0,0,
0,0,0,0,0,0,0,0,0,0,0,0,0,0,0,0,0,0,0,0,0,0,0,0,0,0,0,0,0,0,0,
0,0,0,0,0,0,0,0,0,0,0,0,0,0,0,0,0,0,0,0,0,0,0,0,0,0,0,0,0,0,0,
0,0,0,0,0,0,0,0,0,0,0,0,0,0,0,0,0,0,0,0,0,0,0,0,0,0,0,0,0,0,0,
0,0,0,0,0,0,0,0,0,0,0,0,0,0,0,0,0,0,0,0,0,0,0,0,0,0,0,0,0,0,0,
0,0,0,0,0,0,0,0,0,0,0,0,0,29,3221225490,18,29,0,0,0,0,13,0,0,0,0,0,0,0,0,0,
0,0,0,0,0,0,0,0,0,0,0,0,0,29,16,17,29,0,0,0,0,0,0,0,0,0,0,0,0,0,0,
0,0,0,0,0,0,0,0,0,0,0,0,0,0,0,0,0,0,0,0,0,0,0,0,0,0,0,0,0,0,0,
0,0,0,0,0,0,0,0,0,0,0,0,0,0,0,0,0,0,0,0,0,0,0,0,0,0,0,0,0,0,0,
0,0,0,0,0,0,0,0,0,0,0,0,0,0,0,0,0,0,0,0,0,0,0,0,0,0,0,0,0,0,0,
0,0,0,0,0,0,0,0,0,0,0,0,0,0,0,0,0,0,0,0,0,0,0,0,0,0,0,0,0,0,0,
0,0,1187,0,0,0,0,0,0,0,2147483681,0,0,0,0,0,0,0,0,2147483681,0,0,0,0,0,0,0,0,0,0,0,
0,0,1194,0,0,0,0,0,0,0,0,0,0,0,0,0,0,0,0,0,0,0,0,0,0,0,0,0,0,0,0,
0,0,1201,0,0,0,0,112,0,0,0,49,0,0,0,0,0,0,0,0,0,0,0,49,49,0,0,0,0,0,0,
0,0,0,0,0,0,0,0,0,0,0,0,0,0,29,18,0,0,0,0,0,0,0,0,0,0,0,0,0,0,0,
0,0,0,0,0,0,0,0,0,0,0,0,0,0,0,0,0,0,0,0,0,0,0,0,0,0,0,0,0,0,0,
0,0,0,0,0,0,0,0,0,0,0,0,0,0,0,0,0,0,0,0,0,0,0,0,0,0,0,0,0,0,0,
0,0,0,0,0,0,0,0,0,0,0,0,0,0,0,0,0,0,0,0,0,0,0,0,0,0,0,0,0,0,0,
0,0,0,0,0,0,0,0,0,0,0,0,0,0,0,0,0,0,0,0,0,0,0,0,0,0,0,0,0,0,0,
0,0,0,0,0,0,0,0,0,0,0,0,0,0,0,0,0,0,0,0,0,0,0,0,0,0,0,0,0,0,0,
0,0,0,0,0,0,0,0,0,0,0,0,0,0,0,0,0,0,0,0,0,0,0,0,0,0,0,0,0,0,0,
0,0,0,0,0,0,0,0,0,0,0,0,0,0,0,0,0,0,0,0,0,0,0,0,0,0,0,0,0,0,0,
0,0,0,0,0,0,0,0,0,0,0,0,0,0,0,0,0,0,0,0,0,0,0,0,0,0,0,0,0,0,0,
0,0,0,0,0,0,0,0,0,0,0,0,0,0,0,0,0,0,0,0,0,0,0,0,0,0,0,0,0,0,0,
0,0,0,0,0,0,0,0,0,0,0,0,0,0,0,0,0,0,0,0,0,0,0,0,0,0,0,0,0,0,0,
0,0,0,0,0,0,0,0,0,0,0,0,0,0,0,0,0,0,0,0,0,0,0,0,0,0,0,0,0,0,0
</data>
 </layer>
 <layer id="15" name="detallesatraspared" width="31" height="30">
  <data encoding="csv">
0,0,0,0,0,0,0,0,0,0,0,0,0,0,0,0,0,0,0,0,0,0,0,0,0,0,0,0,0,0,0,
0,0,0,0,0,0,0,0,0,0,0,0,0,0,0,0,0,0,0,0,0,0,0,0,0,0,0,0,0,0,0,
0,0,0,0,0,0,0,0,0,0,0,0,0,0,0,0,0,0,0,0,0,0,0,0,0,0,0,0,0,0,0,
0,0,0,0,0,0,0,0,0,0,0,0,0,0,0,0,0,0,0,0,0,0,0,0,0,0,0,0,0,0,0,
0,0,0,0,0,0,0,0,0,910,0,0,0,0,0,0,0,0,0,0,0,0,0,0,0,0,0,0,0,0,0,
0,0,0,0,0,0,0,0,0,926,0,0,0,0,0,0,0,0,0,0,0,0,0,0,0,0,0,0,0,0,0,
0,0,0,0,0,0,0,0,0,942,0,0,0,0,0,0,0,0,0,0,0,0,0,0,0,0,0,0,0,0,0,
0,0,0,0,0,0,0,0,0,0,0,0,0,0,0,0,0,0,0,0,0,0,0,0,0,0,0,0,0,0,0,
0,0,0,0,0,0,0,0,0,0,0,2147484328,680,0,0,0,0,0,0,704,0,0,0,0,0,0,0,0,0,0,0,
0,0,0,0,0,0,0,0,0,0,0,2147484344,696,0,0,0,0,0,0,0,0,0,0,0,0,0,0,0,0,0,0,
0,0,0,0,0,0,0,0,0,0,0,0,0,0,0,0,0,0,0,0,0,0,0,0,0,0,0,0,0,0,0,
0,0,5570,5571,0,0,0,0,0,0,0,0,0,0,0,0,0,0,0,0,0,0,0,0,0,0,0,0,0,0,0,
0,0,5585,5586,0,0,0,0,0,0,0,0,0,0,0,0,0,0,0,0,0,0,0,0,0,0,0,0,0,0,0,
0,0,0,0,0,0,0,0,0,0,0,0,0,0,0,0,0,0,0,0,0,0,0,0,0,0,0,0,0,0,0,
0,0,0,0,0,0,0,0,0,0,0,0,0,0,0,0,0,0,0,0,0,0,0,0,0,0,0,0,0,0,0,
0,0,0,0,0,0,1193,0,0,0,0,0,0,0,0,0,0,0,0,0,0,0,0,0,0,0,0,0,0,0,0,
0,0,1187,0,0,0,1200,0,0,0,0,0,0,0,0,0,0,0,0,0,0,0,0,0,0,3349,3350,3351,0,0,0,
0,1301,1302,0,0,0,0,0,0,0,0,0,0,0,0,0,0,0,0,0,0,0,0,0,0,3356,3357,3358,0,0,0,
0,1200,1201,0,0,0,0,0,0,0,0,0,0,0,0,0,0,0,0,0,0,0,0,0,0,34,34,34,34,34,0,
0,0,0,0,0,0,0,0,0,0,0,0,0,0,0,0,0,0,0,0,0,0,0,0,0,0,0,0,0,0,0,
0,0,0,0,0,0,0,0,0,0,0,0,0,0,0,0,0,0,0,0,0,0,0,0,0,0,0,0,0,0,0,
0,0,0,0,34,34,0,0,0,34,34,34,34,0,0,0,0,34,34,34,34,34,34,0,0,0,0,0,0,0,0,
0,0,0,0,0,0,0,0,0,0,0,0,0,0,0,0,0,0,0,0,0,0,0,0,0,0,0,0,0,0,0,
0,0,2912,2913,2914,0,0,0,0,0,0,0,0,0,0,0,0,0,0,0,0,0,0,0,0,0,0,0,0,0,0,
0,0,2147484514,0,0,0,2975,0,0,0,0,0,0,0,0,0,0,0,0,0,0,0,0,0,0,0,0,0,0,0,0,
0,0,0,0,0,0,2975,0,0,0,0,0,0,0,0,0,0,0,0,0,0,0,0,0,0,0,0,0,0,0,0,
0,0,0,0,0,0,0,0,0,0,0,0,0,0,0,0,0,0,0,0,0,0,0,998,999,2147484647,2147484646,0,0,0,0,
0,0,0,0,0,0,0,0,0,0,0,0,0,0,0,0,0,0,0,0,0,0,0,0,0,0,0,0,0,0,0,
0,0,0,0,0,0,0,0,0,0,0,0,0,0,0,0,0,0,0,0,0,0,0,0,0,0,0,0,0,0,0,
0,0,0,0,0,0,0,0,0,0,0,0,0,0,0,0,0,0,0,0,0,0,0,0,0,0,0,0,0,0,0
</data>
 </layer>
 <layer id="8" name="pared2" width="31" height="30">
  <data encoding="csv">
0,0,0,0,0,0,0,0,0,0,0,0,0,0,0,0,0,0,0,0,0,0,0,0,0,0,0,0,0,0,0,
0,0,0,0,0,0,0,0,0,0,0,0,0,0,0,0,0,0,0,0,0,0,0,0,0,0,0,0,0,0,0,
0,0,0,0,0,0,0,0,0,0,0,0,0,0,0,0,0,0,0,0,0,0,0,0,0,0,0,0,0,0,0,
0,0,0,0,0,0,0,0,0,49,49,49,49,49,49,49,49,49,49,49,49,0,0,0,0,0,0,0,0,0,0,
0,0,0,0,0,0,0,0,0,56,105,105,105,105,5528,105,105,105,105,105,105,52,0,0,0,0,0,0,0,0,0,
0,0,0,0,0,0,0,0,0,0,0,0,0,0,0,0,0,0,0,0,0,52,0,0,0,0,0,0,0,0,0,
0,0,2147483804,95,95,95,95,95,95,0,0,0,0,0,0,0,0,0,0,0,0,52,0,0,0,0,0,0,0,0,0,
0,0,0,0,0,0,0,0,0,0,0,0,0,0,0,0,0,0,0,0,0,52,0,0,0,0,0,0,0,0,0,
0,0,0,0,0,0,0,0,0,0,0,0,0,0,0,0,0,0,0,0,0,13,0,0,0,0,0,0,0,0,0,
0,0,0,0,0,0,0,3221225519,3221225519,3221225519,3221225519,3221225519,3221225519,0,0,0,56,3221225519,3221225519,3221225519,3221225519,20,0,0,0,0,0,0,0,0,0,
0,0,0,0,0,98,0,0,0,0,0,98,3,0,0,18,0,2147483650,3,0,0,163,163,163,163,20,98,98,98,98,0,
0,0,0,0,0,105,3,0,0,0,0,105,105,11,0,0,8,9,10,0,0,0,0,0,0,0,34,34,34,34,0,
0,0,0,0,0,0,10,0,0,0,0,0,0,0,0,0,0,0,0,43,0,0,0,0,0,0,0,0,0,0,0,
0,0,0,0,0,0,0,105,95,95,95,0,0,0,0,0,0,0,0,95,95,95,95,95,95,96,0,0,0,0,0,
0,0,0,0,0,0,0,0,0,0,0,0,0,0,0,0,0,0,0,0,0,0,0,0,0,0,0,0,0,0,0,
0,0,0,0,0,0,0,0,0,0,0,0,0,0,0,0,0,0,0,0,0,0,0,0,0,0,0,0,0,0,0,
0,0,0,0,0,0,0,0,0,0,0,0,0,0,0,0,0,0,0,0,0,0,0,0,0,0,0,0,0,0,0,
0,0,0,0,0,0,0,1,2,49,0,49,49,0,0,0,1,98,3,49,0,0,0,49,49,0,0,0,0,0,0,
0,34,34,0,0,0,56,56,56,56,56,56,56,56,0,0,56,56,56,56,56,0,0,0,0,0,0,0,0,0,0,
0,0,0,0,0,0,0,0,0,0,0,0,0,0,0,0,0,0,0,0,0,0,0,0,0,0,0,0,0,0,0,
0,0,0,0,0,0,0,0,0,0,0,0,0,0,0,0,0,0,0,0,0,0,0,0,0,0,0,0,0,0,0,
0,0,112,112,112,112,112,0,0,34,0,98,98,98,0,0,98,98,98,0,0,0,0,0,0,98,98,0,0,0,0,
0,0,105,105,105,105,105,0,0,0,0,105,5528,105,0,0,105,105,105,0,0,0,0,0,0,5528,105,0,0,0,0,
0,0,112,0,0,0,0,0,0,13,0,0,0,0,0,0,0,0,0,0,0,0,0,0,0,0,0,0,0,0,0,
0,0,0,0,0,0,0,112,0,0,0,0,0,0,0,0,0,0,0,0,0,0,0,0,0,0,0,0,0,0,0,
0,0,0,0,0,0,0,0,112,0,0,0,0,0,0,0,0,0,0,0,0,0,0,0,0,0,0,0,0,0,0,
0,0,0,0,0,0,0,0,0,0,0,0,0,0,0,0,0,0,0,0,0,0,0,98,0,0,98,0,0,0,0,
0,0,0,0,0,0,0,112,112,0,0,0,0,0,0,0,0,0,0,0,0,0,0,35,35,35,35,0,0,0,0,
0,0,0,0,0,21,34,34,34,20,0,0,0,0,0,0,0,0,0,0,0,0,0,0,0,0,0,0,0,0,0,
0,0,0,0,0,0,0,0,0,0,0,35,35,35,35,35,35,35,35,0,0,0,0,0,0,0,0,0,0,0,0
</data>
 </layer>
 <layer id="4" name="techo1" width="31" height="30">
  <data encoding="csv">
0,0,0,0,0,0,0,0,0,0,0,0,0,0,0,0,0,0,0,0,0,0,0,0,0,0,0,0,0,0,0,
0,0,0,0,0,0,0,0,0,0,0,0,0,0,0,0,0,0,0,0,0,0,0,0,0,0,0,0,0,0,0,
0,0,0,0,0,0,0,0,0,0,0,0,0,0,0,0,0,0,0,0,0,0,0,0,0,0,0,0,0,0,0,
0,0,0,0,0,0,0,0,0,0,0,0,0,0,0,0,0,0,0,0,0,0,0,0,0,0,0,0,0,0,0,
0,0,0,0,0,0,0,0,14,0,0,0,0,0,0,0,0,0,0,0,0,20,0,0,0,0,0,0,0,0,0,
0,0,0,0,0,0,0,0,14,0,0,0,0,0,0,0,0,0,0,0,0,20,0,0,0,0,0,0,0,0,0,
0,0,0,0,0,0,0,0,14,0,0,0,0,0,0,0,0,0,0,0,0,20,0,0,0,0,0,0,0,0,0,
0,0,14,0,0,0,0,0,0,0,0,0,0,0,0,0,0,0,0,0,0,20,0,0,0,0,0,0,0,0,0,
0,0,14,0,0,0,0,0,0,0,0,0,0,0,0,0,0,0,0,0,0,20,0,0,0,0,0,0,0,0,0,
0,0,14,0,0,2147483801,0,0,0,0,0,0,153,0,0,0,0,2147483801,0,0,0,0,0,0,0,0,0,0,0,0,0,
0,49,28,0,0,1073741884,0,0,0,0,0,0,103,0,0,0,0,0,2147483649,0,0,0,0,0,0,157,0,0,0,0,13,
14,0,0,0,0,0,1073741884,0,0,0,153,0,0,0,0,0,0,0,0,151,0,0,0,0,0,2147483799,0,0,0,0,13,
14,0,0,0,0,0,0,1073741884,0,0,153,0,0,0,0,0,0,0,0,151,0,0,0,0,0,153,0,0,0,0,13,
14,0,0,0,0,0,0,0,95,0,50,0,0,0,0,0,0,0,0,111,111,0,0,0,0,0,0,0,0,0,13,
14,0,0,0,0,0,0,0,0,0,0,0,0,0,0,0,0,0,0,0,0,0,0,0,0,0,0,0,0,0,13,
14,0,0,0,0,0,0,0,0,0,0,0,0,0,0,0,0,0,0,0,0,0,0,0,0,0,0,0,0,0,13,
14,0,0,0,0,0,151,0,0,0,2147483799,0,0,0,0,0,0,0,0,151,2147483799,0,0,151,153,0,0,0,0,0,13,
14,0,0,0,0,0,53,0,0,0,99,0,0,0,0,0,0,0,0,100,28,0,0,53,55,49,0,0,0,0,13,
0,0,0,14,0,0,0,0,44,0,0,0,0,0,0,0,0,0,0,0,0,45,0,105,105,20,0,0,0,0,0,
0,0,0,14,0,0,0,0,0,0,0,0,0,0,0,0,0,0,0,0,0,0,0,0,0,20,0,0,0,0,0,
0,0,0,14,0,0,0,0,0,0,0,0,0,0,0,0,0,0,0,0,0,0,0,0,0,20,0,0,0,0,0,
0,14,0,0,0,0,21,0,0,20,14,0,0,0,0,0,0,0,0,13,0,0,21,0,0,101,0,13,0,0,0,
0,14,0,0,0,0,0,0,0,20,14,0,0,0,0,0,0,0,0,13,0,0,21,0,0,0,0,20,0,0,0,
0,14,0,0,0,0,0,0,0,20,14,0,0,0,0,0,0,0,0,13,0,0,21,0,0,0,0,20,0,0,0,
0,0,14,0,0,0,0,20,13,0,14,0,0,0,0,0,0,0,0,13,0,0,21,0,0,0,0,20,0,0,0,
0,0,0,14,0,0,0,105,20,0,14,0,0,0,0,0,0,0,0,13,0,0,21,0,0,0,0,20,0,0,0,
0,0,0,0,14,0,0,0,105,20,14,0,0,0,0,0,0,0,0,13,0,0,21,0,0,0,0,20,0,0,0,
0,0,0,0,0,14,0,0,0,20,14,0,0,0,0,0,0,0,0,13,0,0,21,0,0,0,0,20,0,0,0,
0,0,0,0,0,0,0,0,0,0,14,0,0,0,0,0,0,0,0,13,0,0,0,0,0,0,0,0,0,0,0,
0,0,0,0,0,0,0,0,0,0,21,0,0,0,0,0,0,0,0,20,0,0,0,0,0,0,0,0,0,0,0
</data>
 </layer>
 <layer id="5" name="techo2" width="31" height="30">
  <data encoding="csv">
0,0,0,0,0,0,0,0,0,0,0,0,0,0,0,0,0,0,0,0,0,0,0,0,0,0,0,0,0,0,0,
0,0,0,0,0,0,0,0,0,0,0,0,0,0,0,0,0,0,0,0,0,0,0,0,0,0,0,0,0,0,0,
0,0,0,0,0,0,0,0,0,0,0,0,0,0,0,0,0,0,0,0,0,0,0,0,0,0,0,0,0,0,0,
0,0,0,0,0,0,0,0,2147483810,0,0,0,0,0,0,0,0,0,0,0,0,162,0,0,0,0,0,0,0,0,0,
0,0,0,0,0,0,0,0,21,0,0,0,0,0,0,0,0,0,0,0,0,13,0,0,0,0,0,0,0,0,0,
0,0,0,0,0,0,0,0,21,0,0,0,0,0,0,0,0,0,0,0,0,13,0,0,0,0,0,0,0,0,0,
0,0,14,47,47,47,47,47,47,0,0,0,0,0,0,0,0,0,0,0,0,13,0,0,0,0,0,0,0,0,0,
0,0,21,0,0,0,0,0,0,0,0,0,0,0,0,0,0,0,0,0,0,13,0,0,0,0,0,0,0,0,0,
0,0,21,0,0,0,0,0,0,0,0,0,0,0,0,0,0,0,0,0,0,0,0,0,0,0,0,0,0,0,0,
0,0,21,0,0,3221225519,3221225519,0,0,0,0,0,0,0,0,0,0,0,0,0,0,0,0,0,0,0,0,0,0,0,0,
2147483810,0,0,0,0,2147483800,162,0,0,0,2147483810,0,152,0,0,0,0,2147483800,0,162,0,0,0,0,0,2147483810,0,0,0,0,0,
21,0,0,0,0,0,2147483800,162,0,0,152,0,0,0,0,0,0,0,0,2147483800,0,0,0,0,0,152,0,0,0,0,20,
21,0,0,0,0,0,0,2147483800,162,0,152,0,0,0,0,0,0,0,0,2147483800,0,0,0,0,0,152,0,0,0,0,20,
21,0,0,0,0,0,0,0,95,49,95,0,0,0,0,0,0,0,0,95,98,98,98,98,98,95,0,0,0,0,20,
21,0,0,0,0,0,0,0,0,0,0,0,0,0,0,0,0,0,0,0,0,0,0,0,0,0,0,0,0,0,20,
21,0,0,0,0,0,0,0,0,0,0,0,0,0,0,0,0,0,0,0,0,0,0,0,0,0,0,0,0,0,20,
21,0,0,0,0,0,2147483800,0,0,0,152,0,0,0,0,0,0,0,0,2147483800,152,0,0,2147483800,152,0,0,0,0,0,20,
21,112,0,0,0,0,2147483800,0,0,0,152,0,0,0,0,0,0,0,0,2147483800,152,0,0,2147483800,152,0,49,0,0,0,20,
0,0,0,21,0,0,0,0,0,0,0,0,0,0,0,0,0,0,0,0,0,0,0,0,0,13,0,0,0,0,0,
0,0,0,21,0,0,0,0,0,0,0,0,0,0,0,0,0,0,0,0,0,0,0,0,0,13,0,0,0,0,0,
0,0,0,21,0,0,0,0,0,0,0,0,0,0,0,0,0,0,0,0,0,0,0,0,0,13,0,0,0,0,0,
0,0,0,0,0,0,0,0,0,13,0,0,0,21,0,0,20,0,0,0,0,0,14,0,0,20,0,0,0,0,0,
0,21,0,0,0,0,0,0,0,13,21,0,0,0,0,0,0,0,0,20,0,0,14,0,0,0,0,13,0,0,0,
0,21,0,0,0,0,0,0,0,0,21,0,0,0,0,0,0,0,0,20,0,0,14,0,0,0,0,13,0,0,0,
0,0,34,0,0,0,0,34,34,0,21,0,0,0,0,0,0,0,0,20,0,0,14,0,0,0,0,13,0,0,0,
0,0,0,34,0,0,0,0,0,13,21,0,0,0,0,0,0,0,0,20,0,0,14,0,0,0,0,13,0,0,0,
0,0,0,0,34,0,0,0,0,13,21,0,0,0,0,0,0,0,0,20,0,0,14,0,0,0,0,13,0,0,0,
0,0,0,0,0,34,0,0,0,13,21,0,0,0,0,0,0,0,0,20,0,0,0,0,0,0,0,0,0,0,0,
0,0,0,0,0,0,0,0,0,0,21,0,0,0,0,0,0,0,0,20,0,0,0,0,0,0,0,0,0,0,0,
0,0,0,0,0,0,0,0,0,0,0,0,0,0,0,0,0,0,0,0,0,0,0,0,0,0,0,0,0,0,0
</data>
 </layer>
 <layer id="10" name="puertita" width="31" height="30">
  <data encoding="csv">
0,0,0,0,0,0,0,0,0,0,0,0,0,0,0,0,0,0,0,0,0,0,0,0,0,0,0,0,0,0,0,
0,0,0,0,0,0,0,0,0,0,0,0,0,0,0,0,0,0,0,0,0,0,0,0,0,0,0,0,0,0,0,
0,0,0,0,0,0,0,0,0,0,0,0,0,0,0,0,0,0,0,0,0,0,0,0,0,0,0,0,0,0,0,
0,0,0,0,0,0,0,0,0,0,0,0,0,0,0,0,0,0,0,0,0,0,0,0,0,0,0,0,0,0,0,
0,0,0,0,0,0,0,0,0,0,0,0,0,0,0,0,0,0,0,0,0,0,0,0,0,0,0,0,0,0,0,
0,0,0,0,0,0,0,0,0,0,0,0,0,0,0,0,0,0,0,0,0,0,0,0,0,0,0,0,0,0,0,
0,0,0,0,0,0,0,0,0,0,0,0,0,0,0,0,0,0,0,0,0,0,0,0,0,0,0,0,0,0,0,
0,0,0,0,0,0,0,0,0,0,0,0,0,0,0,0,0,0,0,0,0,0,0,0,0,0,0,0,0,0,0,
0,0,0,0,0,0,0,0,0,0,0,0,0,0,0,0,0,0,0,0,0,0,0,0,0,0,0,0,0,0,0,
0,0,0,0,0,0,0,0,0,0,0,0,0,0,0,0,0,0,0,0,0,0,0,0,0,0,0,0,0,0,0,
0,0,0,0,0,98,0,0,0,0,0,0,0,0,0,0,0,0,0,0,0,0,0,0,0,0,0,0,0,0,0,
0,0,0,0,0,0,3,0,0,0,0,0,0,0,0,0,0,0,0,0,0,0,0,0,0,0,0,0,0,0,0,
0,0,0,0,0,0,0,98,0,0,0,0,0,0,0,0,0,0,0,0,0,0,0,0,0,0,0,0,0,0,0,
0,0,0,0,0,0,0,0,96,96,96,0,0,0,0,0,0,0,0,96,96,96,96,96,96,96,0,0,0,0,0,
0,0,0,0,0,0,0,0,0,0,0,0,0,0,0,0,0,0,0,0,0,0,0,0,0,0,0,0,0,0,0,
0,0,0,0,0,0,0,0,0,0,0,0,0,0,0,0,0,0,0,0,0,0,0,0,0,0,0,0,0,0,0,
0,0,0,0,0,0,0,0,0,0,0,0,0,0,0,0,0,0,0,0,0,0,0,0,0,0,0,0,0,0,0,
0,0,0,0,0,0,98,0,0,0,0,0,0,0,0,0,0,0,0,0,0,0,0,0,0,0,0,0,0,0,0,
0,0,0,0,0,0,0,0,0,0,0,0,0,0,0,0,0,0,0,0,0,0,0,0,0,0,0,0,0,0,0,
0,0,0,0,0,0,0,0,0,0,0,0,0,0,0,0,0,0,0,0,0,0,0,0,0,0,0,0,0,0,0,
0,0,0,0,0,0,0,0,0,0,0,0,0,0,0,0,0,0,0,0,0,0,0,0,0,0,0,0,0,0,0,
0,0,0,0,0,0,0,0,0,0,0,0,0,0,0,0,0,0,0,0,0,0,0,0,0,0,0,0,0,0,0,
0,0,0,0,0,0,0,0,0,0,0,0,0,0,0,0,0,0,0,0,0,0,0,0,0,0,0,0,0,0,0,
0,0,0,0,0,0,0,0,0,0,0,0,0,0,0,0,0,0,0,0,0,0,0,0,0,0,0,0,0,0,0,
0,0,0,0,0,0,2147483810,0,0,0,0,0,0,0,0,0,0,0,0,0,0,0,0,0,0,0,0,0,0,0,0,
0,0,0,0,0,0,0,0,0,0,0,0,0,0,0,0,0,0,0,0,0,0,0,0,0,0,0,0,0,0,0,
0,0,0,0,0,0,0,0,0,0,0,0,0,0,0,0,0,0,0,0,0,0,0,0,0,0,0,0,0,0,0,
0,0,0,0,0,0,0,0,0,0,0,0,0,0,0,0,0,0,0,0,0,0,0,0,0,0,0,0,0,0,0,
0,0,0,0,0,0,0,0,0,0,0,0,0,0,0,0,0,0,0,0,0,0,0,0,0,0,0,0,0,0,0,
0,0,0,0,0,0,0,0,0,0,0,0,0,0,0,0,0,0,0,0,0,0,0,0,0,0,0,0,0,0,0
</data>
 </layer>
 <layer id="7" name="puerta" width="31" height="30">
  <data encoding="csv">
0,0,0,0,0,0,0,0,0,0,0,0,0,0,0,0,0,0,0,0,0,0,0,0,0,0,0,0,0,0,0,
0,0,0,0,0,0,0,0,0,0,0,0,0,0,0,0,0,0,0,0,0,0,0,0,0,0,0,0,0,0,0,
0,0,0,0,0,0,0,0,0,0,0,0,0,0,0,0,0,0,0,0,0,0,0,0,0,0,0,0,0,0,0,
0,0,0,0,0,0,0,0,0,0,0,0,0,0,0,0,0,0,0,0,0,0,0,0,0,0,0,0,0,0,0,
0,0,0,0,0,0,0,0,0,0,0,0,0,0,0,0,0,0,0,0,0,0,0,0,0,0,0,0,0,0,0,
0,0,0,0,0,0,0,0,0,0,0,0,0,0,0,0,0,0,0,0,0,0,0,0,0,0,0,0,0,0,0,
0,0,0,0,0,0,0,0,0,0,0,0,0,0,0,0,0,0,0,0,0,0,0,0,0,0,0,0,0,0,0,
0,0,0,0,0,0,0,0,0,0,0,0,0,0,0,0,0,0,0,0,0,0,0,0,0,0,0,0,0,0,0,
0,0,0,0,0,0,0,0,0,0,0,0,0,0,0,0,0,0,0,0,0,0,0,0,0,0,0,0,0,0,0,
0,0,0,0,0,0,0,0,0,0,0,0,0,11,0,0,2147483659,0,0,0,0,0,0,0,0,0,0,0,0,0,0,
0,0,4,0,0,0,0,0,0,0,0,0,0,0,0,0,0,0,0,0,0,0,0,0,0,0,0,0,0,0,0,
0,10,11,12,0,0,0,0,0,0,0,0,0,0,0,0,12,0,0,0,0,0,0,0,0,0,0,0,0,0,0,
0,0,0,0,0,0,0,0,0,0,0,0,0,0,0,0,0,0,0,0,0,0,0,0,0,0,0,0,0,0,0,
0,0,0,0,0,0,0,0,0,0,0,0,0,0,0,0,0,0,0,0,0,0,0,0,0,95,0,0,0,0,0,
0,0,0,0,0,0,0,0,0,0,0,0,0,0,0,0,0,0,0,0,0,0,0,0,0,0,0,0,0,0,0,
0,0,0,0,0,0,0,0,0,0,0,0,0,0,0,0,0,0,0,0,0,0,0,0,0,0,0,0,0,0,0,
0,0,0,0,0,0,0,0,0,0,0,0,0,0,0,0,0,0,0,0,0,0,0,0,0,0,0,0,0,0,0,
0,0,0,0,0,0,5,0,0,0,0,0,0,0,0,0,0,0,0,0,0,0,0,49,49,0,0,0,0,0,0,
0,0,0,0,0,0,12,0,0,0,0,0,0,11,0,0,12,0,0,0,0,0,0,0,0,0,0,0,0,0,0,
0,0,0,0,0,0,0,0,0,0,0,0,0,0,0,0,0,0,0,0,0,0,0,0,0,0,0,0,0,0,0,
0,0,0,0,0,0,0,0,0,0,0,0,0,0,0,0,0,0,0,0,0,0,0,0,0,0,0,0,0,0,0,
0,0,0,0,0,0,0,0,0,0,0,0,0,0,0,0,0,0,0,0,0,0,0,0,0,0,0,0,0,0,0,
0,0,0,0,0,0,0,0,0,0,0,0,0,0,0,0,0,0,0,0,0,0,0,0,0,0,0,0,0,0,0,
0,0,0,0,0,0,0,0,0,0,0,0,0,0,0,0,0,0,0,0,0,0,0,0,0,0,0,0,0,0,0,
0,0,2147483804,0,0,0,2147483804,0,0,0,0,0,0,0,0,0,0,0,0,0,0,0,0,0,0,0,0,0,0,0,0,
0,0,0,2147483804,0,0,0,0,0,0,0,0,0,0,0,0,0,0,0,0,0,0,0,0,0,0,0,0,0,0,0,
0,0,0,0,2147483804,0,0,0,0,0,0,0,0,0,0,0,0,0,0,0,0,0,0,0,0,0,0,0,0,0,0,
0,0,0,0,0,2147483804,0,0,0,0,0,0,0,0,0,0,0,0,0,0,0,0,0,0,0,0,0,0,0,0,0,
0,0,0,0,0,0,0,0,0,0,0,0,0,0,0,0,0,0,0,0,0,0,0,0,0,0,0,0,0,0,0,
0,0,0,0,0,0,0,0,0,0,0,0,0,0,0,0,0,0,0,0,0,0,0,0,0,0,0,0,0,0,0
</data>
 </layer>
 <layer id="12" name="detalles" width="31" height="30">
  <data encoding="csv">
0,0,0,0,0,0,0,0,0,0,0,0,0,0,0,0,0,0,0,0,0,0,0,0,0,0,0,0,0,0,0,
0,0,0,0,0,0,0,0,0,0,0,0,0,0,0,0,0,0,0,0,0,0,0,0,0,0,0,0,0,0,0,
0,0,0,0,0,0,0,0,0,0,0,0,0,0,0,0,0,0,0,0,0,0,0,0,0,0,0,0,0,0,0,
0,0,0,0,0,0,0,0,0,0,0,0,0,0,0,0,0,0,0,0,0,0,0,0,0,0,0,0,0,0,0,
0,0,0,0,0,0,0,0,0,252,252,252,0,0,0,0,0,0,0,174,174,0,0,0,0,0,0,0,0,0,0,
0,0,0,0,0,0,0,0,0,0,0,0,0,0,0,0,0,0,0,0,630,0,0,0,0,0,0,0,0,0,0,
0,0,0,863,865,0,0,0,0,0,0,0,0,0,0,1002,1003,799,0,0,646,0,0,0,0,0,0,0,0,0,0,
0,0,0,0,881,0,0,0,0,0,0,0,0,0,0,0,0,0,0,0,0,0,0,0,0,0,0,0,0,0,0,
0,0,0,0,0,0,0,0,0,0,0,0,0,0,0,0,0,0,0,0,0,0,0,0,0,0,0,0,0,0,0,
0,0,0,0,0,0,0,0,0,0,0,0,0,0,0,0,0,0,0,0,0,0,0,0,0,0,0,0,0,0,0,
0,0,1187,0,0,0,0,0,0,0,0,0,0,0,0,0,0,0,0,0,0,0,0,0,0,0,1039,1040,1041,1042,0,
0,1235,0,1237,1238,0,0,0,0,0,0,0,0,0,0,0,0,0,0,0,0,0,0,0,0,0,1046,1047,1048,1049,0,
0,1246,0,1248,1249,0,0,0,0,0,0,0,0,0,0,0,0,0,0,0,0,0,0,0,0,0,1053,1054,1055,1056,0,
0,1257,1258,1259,1260,0,0,0,0,0,0,0,0,3398,3399,3400,3401,0,0,0,0,0,0,0,0,0,0,0,0,0,0,
0,1268,1269,1270,1271,0,0,0,0,0,0,0,0,3428,3429,3430,3431,0,0,0,0,0,0,0,0,0,0,0,0,0,0,
0,1279,1280,1281,1282,0,0,0,0,0,0,0,0,3458,3459,3460,3461,0,0,0,0,0,0,0,0,0,0,0,0,0,0,
0,1290,1291,1292,1293,0,0,0,0,0,0,0,0,0,0,0,0,0,0,0,0,0,0,0,0,0,0,0,0,0,0,
0,0,0,1303,1304,0,0,0,0,0,0,0,0,0,0,0,0,0,0,0,0,0,0,0,0,0,0,0,0,0,0,
0,0,0,0,0,0,0,0,0,0,0,0,0,0,0,0,0,0,0,0,0,0,0,0,0,0,0,0,0,0,0,
0,0,0,0,0,0,0,0,0,0,0,0,0,0,0,0,0,0,0,0,0,0,0,0,0,0,0,0,0,0,0,
0,0,0,0,0,0,0,0,0,0,0,0,0,0,0,0,0,0,0,0,0,0,0,0,0,0,0,0,0,0,0,
0,0,2874,2875,2876,0,0,0,0,0,0,0,0,0,0,0,0,0,0,0,0,0,0,0,0,0,0,0,0,0,0,
0,0,2893,2894,2895,0,0,0,0,0,0,0,0,0,0,0,0,0,0,0,0,0,0,0,0,0,0,0,0,0,0,
0,0,0,0,0,0,0,0,0,0,0,0,5423,5424,5425,5426,5427,5428,0,0,0,0,0,0,0,0,0,0,0,0,0,
0,0,0,0,0,0,0,0,0,0,0,0,5430,5431,5432,5433,5434,5435,0,0,0,0,0,0,0,0,0,0,0,0,0,
0,0,0,0,0,0,0,0,0,0,0,0,5437,5438,5439,5440,5441,5442,0,0,0,0,0,0,0,0,0,0,0,0,0,
0,0,0,0,0,0,0,267,268,0,0,0,5444,5445,5446,5447,5448,5449,0,0,0,0,0,0,0,0,0,0,0,0,0,
0,0,0,0,0,0,0,274,275,0,0,0,5451,5452,5453,5454,5455,5456,0,0,0,0,0,0,0,0,0,0,0,0,0,
0,0,0,0,0,0,0,0,0,0,0,0,0,0,0,0,0,0,0,0,0,0,0,0,0,0,0,0,0,0,0,
0,0,0,0,0,0,0,0,0,0,0,0,0,0,0,0,0,0,0,0,0,0,0,0,0,0,0,0,0,0,0
</data>
 </layer>
 <layer id="13" name="detalles 2" width="31" height="30">
  <data encoding="csv">
0,0,0,0,0,0,0,0,0,0,0,0,0,0,0,0,0,0,0,0,0,0,0,0,0,0,0,0,0,0,0,
0,0,0,0,0,0,0,0,0,0,0,0,0,0,0,0,0,0,0,0,0,0,0,0,0,0,0,0,0,0,0,
0,0,0,0,0,0,0,0,0,0,0,0,0,0,0,0,0,0,0,0,0,0,0,0,0,0,0,0,0,0,0,
0,0,0,0,0,0,0,0,0,251,251,251,0,0,0,0,0,0,0,0,0,0,0,0,0,0,0,0,0,0,0,
0,0,0,0,0,0,0,0,0,250,250,250,0,0,0,0,0,0,0,173,173,0,0,0,0,0,0,0,0,0,0,
0,0,0,0,0,0,0,0,0,0,0,0,0,0,0,0,0,0,0,172,172,0,0,0,0,0,0,0,0,0,0,
0,0,0,0,0,0,0,0,0,0,0,0,0,1002,1003,0,0,0,0,0,663,0,0,0,0,0,0,0,0,0,0,
0,0,0,0,0,0,0,0,0,0,0,0,0,0,0,0,0,0,0,0,679,0,0,0,0,0,0,0,0,0,0,
0,0,0,0,0,0,0,0,0,0,0,0,0,0,0,0,0,0,0,0,695,0,0,0,0,0,0,0,0,0,0,
0,0,0,0,0,0,0,0,0,0,0,0,0,0,0,0,0,0,0,0,0,0,0,0,0,0,0,0,0,0,0,
0,0,0,0,0,0,0,0,0,0,0,0,0,0,0,0,0,0,0,0,0,0,0,0,0,0,0,0,0,0,0,
0,0,1187,0,0,0,0,0,0,0,0,4298,4299,0,0,0,0,4298,4299,0,0,0,0,0,0,0,0,0,0,0,0,
0,0,1194,0,0,0,0,0,0,0,0,4328,4329,0,0,0,0,4328,4329,0,0,0,0,0,0,0,0,0,0,0,0,
0,0,0,0,0,0,0,0,0,0,0,4358,4359,0,0,0,0,4358,4359,0,0,0,0,0,0,0,0,0,0,0,0,
0,0,0,0,0,0,0,0,0,0,0,0,0,0,0,0,0,0,0,0,0,0,0,0,0,0,0,0,0,0,0,
0,0,0,0,0,0,0,0,0,0,0,0,0,0,0,0,0,0,0,0,0,0,0,0,0,0,0,0,0,0,0,
0,0,0,0,0,0,0,0,0,4479,4479,4300,4301,4479,4479,0,0,4300,4301,0,0,0,0,0,0,0,0,0,0,0,0,
0,0,0,0,0,0,0,0,0,4479,4479,4330,4331,0,4479,4479,4479,4330,4331,0,0,0,0,0,0,0,0,0,0,0,0,
0,0,0,0,0,0,0,0,0,0,4479,4479,0,0,0,0,0,0,0,4479,4479,0,0,0,0,0,0,0,0,0,0,
0,0,0,0,0,0,0,0,0,0,0,4479,4479,0,0,0,0,0,0,0,0,0,0,0,0,0,0,0,0,0,0,
0,0,0,0,0,0,0,0,0,0,0,0,0,0,0,0,0,0,0,0,0,0,0,0,0,0,0,0,0,0,0,
0,0,0,0,0,0,0,0,0,0,0,0,0,0,0,0,0,0,0,0,0,0,0,0,0,0,0,0,0,0,0,
0,0,0,0,0,0,0,0,0,0,0,0,0,0,0,0,0,5472,5473,0,0,0,0,0,0,0,832,0,0,0,0,
0,0,0,0,0,0,0,0,0,0,0,0,0,0,0,0,0,5479,5480,0,0,0,0,0,0,0,848,0,0,0,0,
0,0,0,0,0,0,0,0,0,0,0,0,0,0,0,0,0,0,0,0,0,0,0,0,0,0,0,0,0,0,0,
0,0,0,0,0,0,0,0,0,0,0,0,0,0,0,0,0,0,0,0,0,0,0,0,0,0,0,0,0,0,0,
0,0,0,0,0,0,0,0,0,0,0,0,5472,5473,0,0,0,0,0,0,0,0,0,0,0,0,0,0,0,0,0,
0,0,0,0,0,0,0,0,0,0,0,0,5479,5480,0,0,0,0,0,0,0,0,0,0,0,0,0,0,0,0,0,
0,0,0,0,0,0,0,0,0,0,0,0,0,0,0,0,0,0,0,0,0,0,0,0,0,0,0,0,0,0,0,
0,0,0,0,0,0,0,0,0,0,0,0,0,0,0,0,0,0,0,0,0,0,0,0,0,0,0,0,0,0,0
</data>
 </layer>
 <layer id="14" name="detalles3" width="31" height="30">
  <data encoding="csv">
0,0,0,0,0,0,0,0,0,5245,0,0,0,0,0,0,0,0,0,0,0,0,0,0,0,0,0,0,0,0,0,
0,0,0,0,0,0,0,0,0,0,0,0,5215,0,0,0,0,0,0,0,0,0,0,0,0,0,0,0,0,0,0,
0,0,5243,0,0,0,0,0,0,0,0,0,0,0,0,0,5201,0,0,0,0,0,5245,0,0,0,5243,0,0,0,0,
0,5215,0,0,0,0,5201,0,0,0,0,0,0,0,0,0,0,0,0,0,0,0,0,0,0,0,0,5201,0,0,0,
0,5215,0,0,0,0,0,0,0,0,0,0,0,0,0,0,0,0,0,0,0,0,0,0,0,0,0,0,0,0,0,
0,0,0,0,0,0,0,0,0,0,0,0,0,0,0,0,0,0,0,0,200,0,0,0,0,0,0,0,0,5215,0,
0,5201,0,837,0,0,0,0,0,0,0,0,0,0,0,0,0,707,0,0,949,0,0,5201,0,0,0,0,0,0,0,
0,0,0,853,0,0,0,0,0,0,0,0,0,0,0,0,0,0,0,0,0,0,0,0,0,0,0,0,0,0,0,
0,5215,0,0,0,0,0,0,0,0,0,0,0,800,0,0,0,0,0,0,0,0,5203,5204,5205,5215,0,0,0,0,0,
0,0,0,0,0,0,0,0,0,0,0,0,0,0,0,0,0,0,0,0,0,0,5218,5219,5220,0,5243,0,5201,0,0,
0,0,0,0,0,0,0,0,0,0,0,0,0,0,0,0,0,0,0,0,0,0,0,0,0,0,0,0,0,0,0,
0,0,0,0,0,0,1186,0,0,0,0,0,0,0,0,0,0,0,0,0,0,0,0,0,0,0,0,0,0,5528,0,
0,0,0,0,0,0,1193,0,0,0,0,0,0,0,0,0,0,0,0,0,0,0,0,0,0,0,0,0,0,0,0,
0,0,0,0,0,0,1200,0,0,0,0,0,0,0,5844,5845,0,0,0,0,0,0,0,0,0,0,0,0,0,0,0,
0,0,0,0,0,0,0,0,0,0,0,0,0,0,5846,5847,0,0,0,0,0,0,0,0,0,0,0,0,394,395,0,
0,0,0,0,0,0,0,0,0,0,0,0,0,0,0,0,0,3464,0,0,0,0,0,0,0,0,0,0,401,402,0,
0,0,0,0,0,0,0,0,0,0,0,0,0,0,0,0,0,0,0,0,0,0,0,0,0,0,0,0,408,409,0,
0,0,0,0,0,0,0,0,0,0,0,0,0,0,0,0,0,0,0,0,0,0,0,0,0,0,0,0,0,0,0,
0,0,0,0,0,0,0,0,0,0,0,0,0,0,0,0,0,0,0,0,0,0,0,0,0,0,0,0,0,0,0,
0,0,5201,0,0,0,0,0,0,0,0,0,0,0,0,0,0,0,0,0,0,0,0,0,0,0,0,0,5201,0,0,
0,0,0,0,0,0,0,0,0,0,0,0,0,0,0,0,0,0,0,0,0,0,0,0,0,0,0,0,0,0,0,
5215,0,0,0,0,0,0,0,0,0,0,0,457,0,0,0,0,0,0,0,0,0,0,0,0,0,0,0,0,0,0,
0,0,0,0,0,0,0,0,0,0,5215,0,0,0,0,0,0,0,0,0,5245,0,0,0,0,0,0,0,0,0,5215,
0,0,0,0,0,0,0,0,0,0,0,0,0,0,0,0,0,0,0,0,0,0,0,0,0,0,932,0,0,0,0,
0,0,0,0,0,0,0,0,0,5215,0,0,0,0,0,0,0,0,0,0,0,0,0,0,0,0,0,0,0,5245,0,
0,0,0,0,0,0,0,0,0,0,0,0,0,0,0,0,0,0,0,0,0,5215,0,0,0,0,0,0,0,0,0,
0,5201,0,0,0,0,0,239,0,0,0,0,0,0,0,0,0,0,0,0,0,0,0,0,0,0,0,0,0,0,0,
0,0,0,0,0,0,0,0,0,0,0,0,0,0,0,0,0,0,0,0,0,0,0,0,0,0,0,0,0,0,0,
0,0,0,0,5215,0,0,0,0,0,0,0,0,0,0,0,0,0,0,0,0,5201,0,0,0,0,5215,0,0,5201,0,
0,0,0,0,0,0,0,0,5201,0,0,0,0,0,0,0,0,0,0,0,0,0,0,0,0,0,0,0,0,0,0
</data>
 </layer>
 <layer id="18" name="grieta" width="31" height="30">
  <data encoding="csv">
0,0,0,0,0,0,0,0,0,0,0,0,0,0,0,0,0,0,0,0,0,0,0,0,0,0,0,0,0,0,0,
0,0,0,0,0,0,0,0,0,0,0,0,0,0,0,0,0,0,0,0,0,0,0,0,0,0,0,0,0,0,0,
0,0,0,0,0,0,0,0,0,0,0,0,0,0,0,0,0,0,0,0,0,0,0,0,0,0,0,0,0,0,0,
0,0,0,0,0,0,0,0,0,0,0,0,0,0,0,0,0,0,0,0,0,0,0,0,0,0,0,0,0,0,0,
0,0,0,0,0,0,0,0,0,0,0,0,0,0,0,0,0,0,0,0,0,0,0,0,0,0,0,0,0,0,0,
0,0,0,0,0,0,0,0,0,0,0,0,0,0,0,0,0,0,0,0,0,0,0,0,0,0,0,0,0,0,0,
0,0,0,0,0,0,0,0,0,0,0,0,0,0,0,0,0,0,0,0,0,0,0,0,0,0,0,0,0,0,0,
0,0,0,0,0,0,0,0,0,0,0,0,0,0,0,0,0,5570,5571,0,0,0,0,0,0,0,0,0,0,0,0,
0,0,0,0,0,0,0,0,0,0,0,0,0,0,0,0,0,5585,5586,0,0,0,0,0,0,0,0,0,0,0,0,
0,0,0,0,0,0,0,0,0,0,0,0,0,0,0,0,0,0,0,0,0,0,0,0,0,0,0,0,0,0,0,
0,0,0,0,0,0,0,0,0,0,0,0,0,0,0,0,0,0,0,0,0,0,0,0,0,0,0,0,0,0,0,
0,0,0,0,0,0,0,0,0,0,0,0,0,0,0,0,0,0,0,0,0,0,0,0,0,0,0,0,0,0,0,
0,0,0,0,0,0,0,0,0,0,0,0,0,0,0,0,0,0,0,0,0,0,0,0,0,0,0,0,5570,5571,0,
0,0,0,0,0,0,0,0,0,0,0,0,0,0,0,0,0,0,0,0,0,0,0,0,0,0,0,0,5585,5586,0,
0,0,0,0,0,0,0,0,0,0,0,0,0,0,0,0,0,0,0,0,0,0,0,0,0,0,0,0,0,0,0,
0,0,0,0,0,0,0,0,0,0,0,0,0,0,0,0,0,0,0,0,0,0,0,0,0,0,0,0,0,0,0,
0,0,0,0,0,0,0,0,0,0,0,0,0,0,0,0,0,0,0,0,0,0,0,0,0,0,0,0,0,0,0,
0,0,0,0,0,0,0,0,0,0,0,0,0,0,0,0,0,0,0,0,0,0,0,0,0,0,0,0,0,0,0,
0,0,0,0,0,0,0,0,0,0,0,0,0,0,0,0,0,0,0,0,0,0,0,0,0,0,0,0,0,0,0,
0,0,0,0,0,0,0,0,0,0,0,0,0,0,0,0,0,0,0,0,0,0,0,0,0,0,0,0,0,0,0,
0,0,0,0,0,0,0,0,0,0,0,0,0,0,0,0,0,0,0,0,0,0,0,0,0,0,0,0,0,0,0,
0,0,0,0,0,0,0,0,0,0,0,0,0,0,0,0,0,0,0,0,0,0,0,0,0,0,0,0,0,0,0,
0,0,0,0,0,0,0,0,0,0,0,0,0,0,0,0,0,0,0,0,0,0,0,0,0,0,0,0,0,0,0,
0,0,0,0,0,0,0,0,0,0,0,0,0,0,0,0,0,0,0,0,0,0,0,0,0,0,0,0,0,0,0,
0,0,0,0,0,0,0,0,0,0,0,0,0,0,0,0,0,0,0,0,0,0,0,0,0,5570,5571,0,0,0,0,
0,0,0,0,0,5570,5571,0,0,0,0,0,0,0,0,0,0,0,0,0,0,0,0,0,0,5585,5586,0,0,0,0,
0,0,0,0,0,5585,5586,0,0,0,0,0,0,0,0,0,0,0,0,0,0,0,0,0,0,0,0,0,0,0,0,
0,0,0,0,0,0,0,0,0,0,0,0,0,0,0,0,0,0,0,0,0,0,0,0,0,0,0,0,0,0,0,
0,0,0,0,0,0,0,0,0,0,0,0,0,0,0,0,0,0,0,0,0,0,0,0,0,0,0,0,0,0,0,
0,0,0,0,0,0,0,0,0,0,0,0,0,0,0,0,0,0,0,0,0,0,0,0,0,0,0,0,0,0,0
</data>
 </layer>
 <layer id="19" name="Techo" width="31" height="30">
  <properties>
   <property name="renderLayer" value="TOP"/>
   <property name="zIndex" type="int" value="5000"/>
  </properties>
  <data encoding="csv">
0,0,0,0,0,0,0,0,0,0,0,0,0,0,0,0,0,0,0,0,0,0,0,0,0,0,0,0,0,0,0,
0,0,0,0,0,0,0,0,0,0,0,0,0,0,0,0,0,0,0,0,0,0,0,0,0,0,0,0,0,0,0,
0,0,0,0,0,0,0,0,0,0,0,0,0,0,0,0,0,0,0,0,0,0,0,0,0,0,0,0,0,0,0,
0,0,0,0,0,0,0,0,0,0,0,0,0,0,0,0,0,0,0,0,0,0,0,0,0,0,0,0,0,0,0,
0,0,0,0,0,0,0,0,0,0,0,0,0,0,0,0,0,0,0,0,0,0,0,0,0,0,0,0,0,0,0,
0,0,0,0,0,0,0,0,0,0,0,0,0,986,987,986,987,783,0,0,0,0,0,0,0,0,0,0,0,0,0,
0,0,0,0,0,0,0,0,0,0,0,0,0,0,0,0,0,0,0,0,0,0,0,0,0,0,0,0,0,0,0,
0,0,0,0,0,0,0,0,0,0,0,0,0,784,0,0,0,0,0,0,0,0,0,0,0,0,0,0,0,0,0,
0,0,0,0,0,49,49,49,49,49,49,49,49,4,0,0,2147483652,49,49,49,49,0,0,0,0,0,0,0,0,0,0,
0,0,0,0,0,0,0,0,0,0,0,0,0,0,0,0,0,0,0,0,0,0,0,0,0,0,0,0,0,0,0,
0,0,0,5,0,0,0,0,0,0,0,0,0,4,0,0,2147483652,0,0,0,0,0,0,0,0,0,0,0,0,0,0,
0,0,1236,0,0,0,0,0,0,0,0,0,0,0,0,0,0,0,0,0,0,0,0,0,0,0,0,0,0,0,0,
0,0,1247,0,0,0,0,0,0,0,0,0,0,0,0,0,0,0,0,0,0,0,0,0,0,0,0,0,0,0,0,
0,0,0,0,0,0,0,0,0,0,0,0,0,0,0,0,0,0,0,0,0,0,0,0,0,0,0,0,0,0,0,
0,0,0,0,0,0,1186,0,0,0,0,0,0,0,0,0,0,0,0,0,0,0,0,0,0,0,0,0,0,0,0,
0,0,0,0,0,0,112,49,49,98,98,0,0,0,0,0,0,0,0,98,98,0,0,98,98,0,0,0,0,0,0,
0,0,0,0,0,0,0,0,0,0,0,0,0,0,0,0,0,0,0,0,0,0,0,0,0,0,0,0,0,0,0,
0,0,112,112,0,0,0,0,0,0,0,0,0,4,0,0,2147483652,0,0,0,0,0,0,0,0,0,98,98,98,98,0,
0,0,0,0,0,0,0,0,0,0,0,0,0,0,0,0,0,0,0,0,0,0,0,0,0,0,0,0,0,0,0,
0,0,0,0,0,0,0,0,0,0,0,0,0,0,0,0,0,0,0,0,0,0,0,0,0,0,0,0,0,0,0,
0,0,0,0,112,112,112,0,0,98,98,98,98,98,0,0,98,98,98,98,98,98,98,0,0,0,0,0,0,0,0,
0,0,0,0,0,0,0,0,0,0,0,0,0,0,0,0,0,0,0,0,0,0,0,0,0,0,0,0,0,0,0,
0,0,0,0,0,0,0,0,0,0,0,0,0,0,0,0,0,0,0,0,0,0,0,0,0,0,0,0,0,0,0,
0,0,0,0,0,0,2147483810,112,112,0,0,0,0,0,0,0,0,0,0,0,0,0,0,0,0,0,0,0,0,0,0,
0,0,0,112,0,0,0,0,0,0,0,0,0,0,0,0,0,0,0,0,0,0,0,0,0,0,0,0,0,0,0,
0,0,0,0,112,0,0,0,0,0,0,0,0,0,0,0,0,0,0,0,0,0,0,982,983,2147484631,2147484630,0,0,0,0,
0,0,0,0,0,112,0,0,0,0,0,0,0,0,0,0,0,0,0,0,0,0,0,0,98,98,0,0,0,0,0,
0,0,0,0,0,0,112,0,0,0,0,0,0,0,0,0,0,0,0,0,0,0,0,0,0,0,0,0,0,0,0,
0,0,0,0,0,0,0,0,0,0,0,98,98,98,98,98,98,98,98,0,0,0,0,0,0,0,0,0,0,0,0,
0,0,0,0,0,0,0,0,0,0,0,0,0,0,0,0,0,0,0,0,0,0,0,0,0,0,0,0,0,0,0
</data>
 </layer>
 <objectgroup id="20" name="Colisiones">
  <object id="114" type="pared" x="507.849" y="266.917" width="168.485" height="35.75"/>
  <object id="115" type="pared" x="667.625" y="112.667" width="15.375" height="191.667"/>
  <object id="116" type="pared" x="285.333" y="113" width="389.333" height="21.6364"/>
  <object id="118" type="pared" x="279.333" y="112" width="8.66667" height="82"/>
  <object id="119" type="pared" x="91.6667" y="192.333" width="196.5" height="22.2917"/>
  <object id="120" type="pared" x="80.9583" y="193" width="11" height="143.333"/>
  <object id="121" type="pared" x="27" y="331.542" width="78.9091" height="36.125"/>
  <object id="123" type="pared" x="24.3333" y="338" width="7.66667" height="230.333"/>
  <object id="125" type="pared" x="22" y="559.667" width="40" height="20.6667"/>
  <object id="126" type="pared" x="186.784" y="560.667" width="253.591" height="22.1818"/>
  <object id="128" type="pared" x="115.042" y="651.417" width="102.148" height="59.3712"/>
  <object id="130" type="pared" x="51.8485" y="689.333" width="40" height="110.667"/>
  <object id="131" type="pared" x="81.3333" y="689.667" width="48.6667" height="28"/>
  <object id="132" type="pared" x="90.125" y="779.951" width="33.625" height="52.2917"/>
  <object id="133" type="pared" x="121.333" y="810.144" width="36.375" height="57.9167"/>
  <object id="134" type="pared" x="155.735" y="842.406" width="33.1667" height="70.625"/>
  <object id="136" type="pared" x="189.144" y="876.394" width="110.917" height="35.3333"/>
  <object id="137" type="pared" x="287.333" y="814.667" width="18.6667" height="66"/>
  <object id="138" type="pared" x="248.542" y="747.42" width="40.4583" height="89.1856"/>
  <object id="139" type="pared" x="214.977" y="747.322" width="45.0833" height="57.5417"/>
  <object id="140" type="pared" x="280.693" y="651.545" width="41.6401" height="110.667"/>
  <object id="141" type="pared" x="321.849" y="651.644" width="120.212" height="56.6515"/>
  <object id="142" type="pared" x="507.015" y="652.295" width="212.098" height="35.5833"/>
  <object id="143" type="pared" x="346.818" y="905.64" width="275.333" height="43.5417"/>
  <object id="145" type="pared" x="331.417" y="687.667" width="17.6667" height="265"/>
  <object id="148" type="pared" x="508.606" y="687.333" width="104.477" height="20.9697"/>
  <object id="149" type="pared" x="601.265" y="688.091" width="19.3333" height="259.333"/>
  <object id="153" type="pared" x="728.333" y="841.947" width="147" height="43.6364"/>
  <object id="154" type="pared" x="855.75" y="687" width="26.25" height="197"/>
  <object id="155" type="pared" x="717.48" y="652.418" width="10.625" height="227.958"/>
  <object id="158" type="pared" x="793.178" y="687.151" width="84.8219" height="27.1818"/>
  <object id="159" type="pared" x="793.026" y="561" width="32.4583" height="127"/>
  <object id="160" type="pared" x="800.242" y="555.151" width="166.424" height="38.1818"/>
  <object id="162" type="pared" x="729.531" y="561" width="73.4697" height="30.6667"/>
  <object id="163" type="pared" x="953.708" y="335.208" width="18.3333" height="250.667"/>
  <object id="164" type="pared" x="827.667" y="336.333" width="135" height="20.0909"/>
  <object id="165" type="pared" x="605.675" y="416.333" width="226.325" height="21.356"/>
  <object id="168" type="pared" x="605.819" y="336" width="16.5151" height="80.3333"/>
  <object id="169" type="pared" x="823.667" y="337" width="7" height="78.3333"/>
  <object id="171" type="pared" x="729.5" y="491.941" width="70.5" height="70.6423"/>
  <object id="172" type="pared" x="508.242" y="560.667" width="158.322" height="22.4242"/>
  <object id="173" type="pared" x="601.292" y="491.987" width="65.3068" height="69.8465"/>
  <object id="174" type="pared" x="509.242" y="330.469" width="99.7576" height="26.5682"/>
  <object id="176" type="pared" x="536" y="303.041" width="21.3333" height="34"/>
  <object id="177" type="pared" x="349.333" y="329.708" width="91.3901" height="27.5114"/>
  <object id="178" type="pared" x="340.333" y="336.031" width="7.75761" height="79.7273"/>
  <object id="180" type="pared" x="403.917" y="302.94" width="9.33333" height="34.1515"/>
  <object id="181" type="pared" x="155.027" y="266.819" width="285.583" height="36.1591"/>
  <object id="182" type="pared" x="251.583" y="416" width="95.6667" height="21.8182"/>
  <object id="184" type="pared" x="218.299" y="366.667" width="39.7008" height="56.1212"/>
  <object id="185" type="pared" x="185.701" y="337" width="42.6326" height="53.3333"/>
  <object id="186" type="pared" x="155.102" y="302.833" width="42.5644" height="56.0151"/>
  <object id="187" type="pared" x="186.875" y="491.955" width="160.193" height="70.4091"/>
  <object id="189" type="objeto" x="87.5227" y="206.807" width="31.6364" height="41.0909"/>
  <object id="190" type="objeto" x="288.114" y="134.545" width="68.7727" height="22.4621"/>
  <object id="191" type="objeto" x="288.364" y="159.455" width="6.18182" height="50.3636"/>
  <object id="193" type="objeto" x="414.989" y="159.227" width="146.136" height="38.1364"/>
  <object id="196" type="objeto" x="616.94" y="134.606" width="55.1515" height="31.7878"/>
  <object id="197" type="objeto" x="633.19" y="179.795" width="37.9924" height="92.5455"/>
  <object id="198" type="objeto" x="607.303" y="252.94" width="64.3333" height="34.6969"/>
  <object id="202" type="objeto" x="345.333" y="254.046" width="56.1818" height="31.2727"/>
  <object id="203" type="objeto" x="411.636" y="230.909" width="19.0909" height="33.4545"/>
  <object id="205" type="objeto" x="352.364" y="355.818" width="50.3636" height="48.5455"/>
  <object id="206" type="objeto" x="548.545" y="356.727" width="58.9091" height="46.8636"/>
  <object id="207" type="objeto" x="551.636" y="507.091" width="49.4545" height="53.6705"/>
  <object id="209" type="objeto" x="429.455" y="421.705" width="88.057" height="47.2045"/>
  <object id="211" type="objeto" x="346.693" y="507.716" width="59.8523" height="52.8182"/>
  <object id="213" type="objeto" x="187.045" y="474.5" width="27.5341" height="23.3182"/>
  <object id="214" type="objeto" x="185.821" y="385.818" width="38.542" height="32.1818"/>
  <object id="215" type="objeto" x="29.5" y="356.5" width="26.5" height="203"/>
  <object id="216" type="objeto" x="57" y="382" width="10" height="180.5"/>
  <object id="218" type="objeto" x="62.5" y="392.75" width="29.7273" height="130.25"/>
  <object id="219" type="objeto" x="92.4545" y="470.727" width="14.8182" height="24.5455"/>
  <object id="221" type="objeto" x="73.0606" y="702.545" width="53.5833" height="35.75"/>
  <object id="223" type="objeto" x="224" y="836.5" width="59" height="44.4167"/>
  <object id="224" type="objeto" x="728.455" y="806.697" width="49.6667" height="43"/>
  <object id="225" type="objeto" x="815.909" y="806.318" width="49.6667" height="48.6818"/>
  <object id="226" type="objeto" x="827.878" y="702.333" width="35" height="66.3333"/>
  <object id="227" type="objeto" x="825" y="338.667" width="88" height="57"/>
  <object id="228" type="objeto" x="889.708" y="468.75" width="68.625" height="49.1667"/>
  <object id="229" type="objeto" x="916.458" y="442.125" width="46" height="26.3333"/>
  <object id="232" type="objeto" x="562.333" y="726.667" width="26" height="20.3333"/>
  <object id="234" type="objeto" x="404.333" y="854.667" width="22.3333" height="21.6667"/>
  <object id="237" type="pared" x="31.1136" y="555.58" width="78.9432" height="23.9318"/>
  <object id="238" type="pared" x="107.068" y="555.659" width="11.25" height="115.5"/>
 </objectgroup>
 <layer id="17" name="camaras" width="31" height="30">
  <properties>
   <property name="renderLayer" value="TOP"/>
   <property name="zIndex" type="int" value="100000"/>
  </properties>
  <data encoding="csv">
0,0,0,0,0,0,0,0,0,0,0,0,0,0,0,0,0,0,0,0,0,0,0,0,0,0,0,0,0,0,0,
0,0,0,0,0,0,0,0,0,0,0,0,0,0,0,0,0,0,0,0,0,0,0,0,0,0,0,0,0,0,0,
0,0,0,0,0,0,0,0,0,0,0,0,0,0,0,0,0,0,0,0,0,0,0,0,0,0,0,0,0,0,0,
0,0,0,0,0,0,0,0,0,0,0,0,0,0,0,0,0,0,0,0,0,0,0,0,0,0,0,0,0,0,0,
0,0,0,0,0,0,0,0,0,0,0,0,0,0,0,0,0,0,0,0,0,0,0,0,0,0,0,0,0,0,0,
0,0,0,0,0,0,0,0,0,0,0,0,0,0,0,0,0,0,0,0,0,0,0,0,0,0,0,0,0,0,0,
0,0,0,0,0,0,0,0,0,0,0,0,0,0,0,0,0,0,0,0,0,0,0,0,0,0,0,0,0,0,0,
0,0,0,0,0,0,0,0,0,0,0,0,0,0,0,0,0,0,0,0,0,0,0,0,0,0,0,0,0,0,0,
0,0,0,0,0,0,0,0,0,0,0,0,0,0,0,0,0,0,0,0,0,0,0,0,0,0,0,0,0,0,0,
0,0,0,0,2147489447,0,0,0,0,0,0,0,0,0,0,0,0,0,0,0,0,0,0,0,0,0,0,0,0,0,0,
0,0,0,0,0,0,0,0,0,0,0,0,0,0,0,0,0,0,0,0,0,0,0,0,0,0,0,0,0,0,0,
0,0,0,0,0,0,0,0,0,0,0,0,0,0,0,0,0,0,0,0,0,0,0,0,0,0,0,0,0,0,0,
0,0,0,0,0,0,0,0,0,0,0,0,0,0,0,0,0,0,0,0,0,0,0,0,0,0,0,0,0,0,0,
0,0,0,0,0,0,0,0,0,0,0,0,0,0,0,0,0,0,0,0,0,0,0,0,0,0,0,0,0,0,0,
0,0,0,0,0,0,0,0,0,0,0,0,0,0,0,0,0,0,0,0,0,0,0,0,0,0,0,0,0,0,0,
0,0,0,0,0,0,0,0,0,0,0,0,0,0,0,0,0,0,0,0,5798,0,0,0,0,0,0,0,0,0,0,
0,0,0,0,0,0,0,0,0,0,0,0,0,0,0,0,0,0,0,0,0,0,0,0,0,0,0,0,0,0,0,
0,0,0,0,0,0,0,0,0,0,0,0,0,0,0,0,0,0,0,0,0,0,0,0,0,0,0,0,0,0,0,
0,0,0,0,0,0,0,0,0,0,0,0,0,0,0,0,0,0,0,0,0,0,0,0,0,0,0,0,0,0,0,
0,0,0,0,5806,0,0,0,0,0,0,0,0,0,0,0,0,0,0,0,0,0,0,0,2147489454,0,0,0,0,0,0,
0,0,0,0,0,0,0,0,0,0,0,0,0,0,0,0,0,0,0,0,0,0,0,0,0,0,0,0,0,0,0,
0,0,0,0,0,0,0,0,0,0,0,0,0,0,0,0,0,0,0,0,0,0,0,0,0,0,0,0,0,0,0,
0,0,0,0,0,0,0,0,0,0,0,0,0,0,0,0,0,0,0,0,0,0,0,0,0,0,0,0,0,0,0,
0,0,0,0,0,0,0,0,0,0,0,0,0,0,0,0,0,0,0,0,0,0,0,0,0,0,0,0,0,0,0,
0,0,0,0,0,0,0,0,0,0,0,0,0,0,0,0,0,0,0,0,0,0,0,0,0,0,0,0,0,0,0,
0,0,0,0,0,0,0,0,0,0,0,0,0,0,0,0,0,0,0,0,0,0,0,0,0,0,0,0,0,0,0,
0,0,0,0,0,0,0,0,0,0,0,0,0,0,0,0,0,0,0,0,0,0,0,0,0,0,0,0,0,0,0,
0,0,0,0,0,0,0,0,0,0,0,0,0,0,0,0,0,0,0,0,0,0,0,0,0,0,0,0,0,0,0,
0,0,0,0,0,0,0,0,0,0,0,0,0,0,0,0,0,0,0,0,0,0,0,0,0,0,0,0,0,0,0,
0,0,0,0,0,0,0,0,0,0,0,0,0,0,0,0,0,0,0,0,0,0,0,0,0,0,0,0,0,0,0
</data>
 </layer>
</map>
